src/LUT/out.cube
# Created by script
TITLE "Reinhard_from__to_all"
LUT_3D_SIZE 9
DOMAIN_MIN 0.0 0.0 0.0
DOMAIN_MAX 1.0 1.0 1.0
0.000000 0.000000 0.007843
0.023529 0.000000 0.094118
0.129412 0.000000 0.168627
0.176471 0.000000 0.223529
0.247059 0.000000 0.309804
0.329412 0.000000 0.411765
0.415686 0.000000 0.501961
0.501961 0.000000 0.600000
0.580392 0.000000 0.698039
0.000000 0.074510 0.000000
0.000000 0.066667 0.054902
0.011765 0.035294 0.145098
0.121569 0.015686 0.235294
0.215686 0.000000 0.325490
0.305882 0.000000 0.423529
0.388235 0.000000 0.517647
0.486275 0.000000 0.611765
0.580392 0.000000 0.705882
0.000000 0.184314 0.000000
0.000000 0.184314 0.082353
0.000000 0.184314 0.176471
0.000000 0.176471 0.258824
0.133333 0.164706 0.352941
0.243137 0.129412 0.439216
0.349020 0.050980 0.533333
0.447059 0.000000 0.627451
0.529412 0.000000 0.721569
0.000000 0.309804 0.050980
0.000000 0.305882 0.121569
0.000000 0.305882 0.200000
0.000000 0.305882 0.290196
0.000000 0.301961 0.380392
0.117647 0.294118 0.470588
0.266667 0.270588 0.560784
0.384314 0.239216 0.650980
0.482353 0.192157 0.745098
0.000000 0.435294 0.101961
0.000000 0.435294 0.152941
0.000000 0.431373 0.235294
0.000000 0.435294 0.321569
0.000000 0.431373 0.407843
0.000000 0.427451 0.494118
0.098039 0.415686 0.592157
0.274510 0.403922 0.678431
0.392157 0.384314 0.768627
0.000000 0.560784 0.141176
0.000000 0.560784 0.188235
0.000000 0.560784 0.262745
0.000000 0.560784 0.345098
0.000000 0.560784 0.435294
0.000000 0.556863 0.525490
0.000000 0.549020 0.611765
0.000000 0.545098 0.709804
0.270588 0.533333 0.796078
0.000000 0.686275 0.200000
0.000000 0.686275 0.227451
0.000000 0.690196 0.294118
0.000000 0.690196 0.380392
0.000000 0.686275 0.466667
0.000000 0.686275 0.549020
0.000000 0.682353 0.643137
0.000000 0.678431 0.733333
0.000000 0.670588 0.823529
0.000000 0.815686 0.247059
0.000000 0.819608 0.282353
0.000000 0.815686 0.333333
0.000000 0.819608 0.411765
0.000000 0.819608 0.498039
0.000000 0.815686 0.584314
0.000000 0.811765 0.674510
0.000000 0.807843 0.760784
0.000000 0.807843 0.854902
0.000000 0.945098 0.294118
0.000000 0.945098 0.325490
0.000000 0.945098 0.372549
0.000000 0.945098 0.443137
0.000000 0.945098 0.529412
0.000000 0.945098 0.611765
0.000000 0.941176 0.698039
0.000000 0.937255 0.788235
0.000000 0.937255 0.886275
0.121569 0.000000 0.000000
0.133333 0.000000 0.078431
0.172549 0.000000 0.152941
0.207843 0.000000 0.227451
0.274510 0.000000 0.313726
0.349020 0.000000 0.411765
0.435294 0.000000 0.509804
0.517647 0.000000 0.607843
0.603922 0.000000 0.701961
0.011765 0.054902 0.000000
0.047059 0.050980 0.058824
0.109804 0.031373 0.152941
0.164706 0.007843 0.239216
0.247059 0.000000 0.329412
0.333333 0.000000 0.419608
0.419608 0.000000 0.517647
0.498039 0.000000 0.615686
0.584314 0.000000 0.709804
0.000000 0.184314 0.000000
0.000000 0.184314 0.090196
0.000000 0.180392 0.176471
0.070588 0.176471 0.262745
0.180392 0.160784 0.352941
0.278431 0.121569 0.443137
0.368627 0.047059 0.537255
0.466667 0.000000 0.627451
0.549020 0.000000 0.721569
0.000000 0.309804 0.054902
0.000000 0.309804 0.121569
0.000000 0.309804 0.200000
0.000000 0.305882 0.290196
0.000000 0.301961 0.384314
0.196078 0.286275 0.466667
0.294118 0.270588 0.556863
0.403922 0.235294 0.654902
0.505882 0.180392 0.745098
0.000000 0.435294 0.105882
0.000000 0.435294 0.152941
0.000000 0.435294 0.231373
0.000000 0.435294 0.317647
0.000000 0.431373 0.411765
0.000000 0.427451 0.501961
0.149020 0.415686 0.588235
0.301961 0.403922 0.674510
0.423529 0.380392 0.772549
0.000000 0.560784 0.145098
0.000000 0.560784 0.192157
0.000000 0.564706 0.266667
0.000000 0.560784 0.349020
0.000000 0.560784 0.439216
0.000000 0.556863 0.521569
0.000000 0.552941 0.615686
0.062745 0.541176 0.709804
0.286275 0.533333 0.796078
0.000000 0.690196 0.203922
0.000000 0.690196 0.231373
0.000000 0.686275 0.294118
0.000000 0.686275 0.380392
0.000000 0.690196 0.470588
0.000000 0.682353 0.552941
0.000000 0.682353 0.647059
0.000000 0.674510 0.733333
0.000000 0.674510 0.827451
0.000000 0.815686 0.250980
0.000000 0.815686 0.282353
0.000000 0.815686 0.333333
0.000000 0.815686 0.411765
0.000000 0.815686 0.494118
0.000000 0.815686 0.588235
0.000000 0.811765 0.674510
0.000000 0.811765 0.768627
0.000000 0.803922 0.854902
0.000000 0.945098 0.298039
0.000000 0.945098 0.325490
0.000000 0.949020 0.376471
0.000000 0.945098 0.443137
0.000000 0.945098 0.529412
0.000000 0.941176 0.611765
0.000000 0.945098 0.701961
0.000000 0.941176 0.796078
0.000000 0.937255 0.886275
0.219608 0.000000 0.000000
0.219608 0.000000 0.058824
0.247059 0.000000 0.145098
0.286275 0.000000 0.235294
0.341176 0.000000 0.329412
0.407843 0.000000 0.419608
0.474510 0.000000 0.517647
0.552941 0.000000 0.615686
0.631373 0.000000 0.705882
0.192157 0.035294 0.000000
0.192157 0.039216 0.074510
0.219608 0.007843 0.164706
0.266667 0.000000 0.250980
0.313726 0.000000 0.345098
0.392157 0.000000 0.427451
0.462745 0.000000 0.525490
0.541176 0.000000 0.619608
0.615686 0.000000 0.713726
0.137255 0.180392 0.015686
0.141176 0.180392 0.094118
0.172549 0.176471 0.180392
0.207843 0.168627 0.266667
0.278431 0.145098 0.356863
0.341176 0.105882 0.450980
0.419608 0.007843 0.541176
0.501961 0.000000 0.635294
0.584314 0.000000 0.729412
0.000000 0.309804 0.062745
0.003922 0.305882 0.117647
0.023529 0.309804 0.203922
0.105882 0.305882 0.298039
0.196078 0.294118 0.384314
0.278431 0.282353 0.474510
0.360784 0.262745 0.564706
0.447059 0.227451 0.658824
0.537255 0.168627 0.745098
0.000000 0.435294 0.113725
0.000000 0.435294 0.160784
0.000000 0.435294 0.235294
0.000000 0.431373 0.321569
0.000000 0.431373 0.407843
0.133333 0.427451 0.498039
0.258824 0.411765 0.592157
0.368627 0.400000 0.686275
0.466667 0.376471 0.772549
0.000000 0.564706 0.156863
0.000000 0.564706 0.200000
0.000000 0.564706 0.266667
0.000000 0.560784 0.349020
0.000000 0.556863 0.435294
0.000000 0.556863 0.529412
0.000000 0.549020 0.619608
0.231373 0.541176 0.713726
0.368627 0.529412 0.800000
0.000000 0.686275 0.200000
0.000000 0.686275 0.239216
0.000000 0.690196 0.301961
0.000000 0.690196 0.380392
0.000000 0.686275 0.466667
0.000000 0.686275 0.560784
0.000000 0.682353 0.647059
0.000000 0.678431 0.737255
0.168627 0.670588 0.827451
0.000000 0.815686 0.247059
0.000000 0.815686 0.278431
0.000000 0.815686 0.337255
0.000000 0.815686 0.415686
0.000000 0.815686 0.498039
0.000000 0.815686 0.588235
0.000000 0.811765 0.670588
0.000000 0.811765 0.764706
0.000000 0.800000 0.854902
0.000000 0.945098 0.301961
0.000000 0.945098 0.321569
0.000000 0.949020 0.380392
0.000000 0.945098 0.443137
0.000000 0.945098 0.525490
0.000000 0.941176 0.615686
0.000000 0.945098 0.705882
0.000000 0.941176 0.800000
0.000000 0.937255 0.882353
0.337255 0.000000 0.000000
0.341176 0.000000 0.086275
0.364706 0.000000 0.168627
0.396078 0.000000 0.254902
0.431373 0.000000 0.341176
0.486275 0.000000 0.435294
0.545098 0.000000 0.529412
0.607843 0.000000 0.623529
0.682353 0.000000 0.717647
0.329412 0.000000 0.000000
0.333333 0.000000 0.090196
0.349020 0.000000 0.176471
0.376471 0.000000 0.262745
0.423529 0.000000 0.352941
0.474510 0.000000 0.443137
0.529412 0.000000 0.533333
0.600000 0.000000 0.623529
0.670588 0.000000 0.721569
0.301961 0.168627 0.031373
0.301961 0.168627 0.105882
0.317647 0.156863 0.192157
0.349020 0.141176 0.278431
0.384314 0.117647 0.368627
0.439216 0.047059 0.454902
0.498039 0.000000 0.549020
0.572549 0.000000 0.639216
0.647059 0.000000 0.733333
0.247059 0.301961 0.074510
0.254902 0.305882 0.133333
0.274510 0.301961 0.215686
0.294118 0.298039 0.301961
0.333333 0.286275 0.396078
0.384314 0.270588 0.482353
0.443137 0.250980 0.572549
0.529412 0.207843 0.662745
0.600000 0.149020 0.756863
0.141176 0.431373 0.121569
0.137255 0.431373 0.164706
0.168627 0.431373 0.239216
0.200000 0.431373 0.325490
0.247059 0.427451 0.419608
0.309804 0.419608 0.509804
0.384314 0.403922 0.596078
0.450980 0.388235 0.686275
0.537255 0.368627 0.772549
0.000000 0.560784 0.164706
0.000000 0.560784 0.200000
0.000000 0.560784 0.274510
0.000000 0.560784 0.356863
0.000000 0.556863 0.447059
0.133333 0.556863 0.537255
0.258824 0.545098 0.619608
0.360784 0.537255 0.713726
0.443137 0.529412 0.803922
0.000000 0.690196 0.207843
0.000000 0.690196 0.243137
0.000000 0.686275 0.301961
0.000000 0.686275 0.384314
0.000000 0.690196 0.470588
0.000000 0.682353 0.552941
0.000000 0.678431 0.647059
0.152941 0.674510 0.745098
0.305882 0.666667 0.827451
0.000000 0.819608 0.258824
0.000000 0.815686 0.286275
0.000000 0.819608 0.345098
0.000000 0.815686 0.415686
0.000000 0.815686 0.498039
0.000000 0.815686 0.588235
0.000000 0.807843 0.674510
0.000000 0.811765 0.772549
0.000000 0.800000 0.854902
0.000000 0.945098 0.301961
0.000000 0.945098 0.333333
0.000000 0.945098 0.376471
0.000000 0.945098 0.450980
0.000000 0.945098 0.529412
0.000000 0.941176 0.615686
0.000000 0.941176 0.705882
0.000000 0.937255 0.796078
0.000000 0.933333 0.878431
0.482353 0.000000 0.023529
0.482353 0.000000 0.101961
0.494118 0.000000 0.184314
0.513726 0.000000 0.274510
0.549020 0.000000 0.356863
0.588235 0.000000 0.450980
0.639216 0.000000 0.541176
0.690196 0.000000 0.639216
0.752941 0.000000 0.729412
0.470588 0.000000 0.043137
0.474510 0.000000 0.105882
0.486275 0.000000 0.188235
0.501961 0.000000 0.282353
0.537255 0.000000 0.364706
0.576471 0.000000 0.462745
0.623529 0.000000 0.549020
0.678431 0.000000 0.639216
0.741176 0.000000 0.733333
0.443137 0.133333 0.062745
0.447059 0.125490 0.121569
0.458824 0.121569 0.203922
0.482353 0.086275 0.290196
0.509804 0.043137 0.380392
0.549020 0.000000 0.470588
0.603922 0.000000 0.560784
0.662745 0.000000 0.654902
0.721569 0.000000 0.745098
0.407843 0.294118 0.090196
0.407843 0.294118 0.145098
0.423529 0.286275 0.227451
0.443137 0.278431 0.309804
0.470588 0.270588 0.400000
0.509804 0.250980 0.490196
0.560784 0.219608 0.576471
0.619608 0.172549 0.670588
0.682353 0.078431 0.768627
0.352941 0.427451 0.133333
0.364706 0.427451 0.168627
0.360784 0.427451 0.243137
0.380392 0.427451 0.333333
0.415686 0.419608 0.423529
0.450980 0.407843 0.509804
0.501961 0.400000 0.600000
0.560784 0.380392 0.698039
0.623529 0.356863 0.784314
0.266667 0.560784 0.168627
0.278431 0.556863 0.203922
0.274510 0.560784 0.278431
0.294118 0.556863 0.364706
0.317647 0.552941 0.450980
0.368627 0.549020 0.541176
0.435294 0.541176 0.627451
0.494118 0.529412 0.717647
0.560784 0.517647 0.807843
0.000000 0.686275 0.215686
0.000000 0.690196 0.247059
0.000000 0.686275 0.313726
0.058824 0.686275 0.388235
0.145098 0.682353 0.478431
0.239216 0.682353 0.564706
0.305882 0.678431 0.658824
0.400000 0.670588 0.741176
0.474510 0.662745 0.839216
0.000000 0.815686 0.262745
0.000000 0.815686 0.294118
0.000000 0.819608 0.341176
0.000000 0.815686 0.423529
0.000000 0.815686 0.505882
0.000000 0.815686 0.596078
0.000000 0.807843 0.678431
0.207843 0.800000 0.768627
0.317647 0.800000 0.862745
0.000000 0.945098 0.301961
0.000000 0.941176 0.325490
0.000000 0.945098 0.384314
0.000000 0.941176 0.450980
0.000000 0.941176 0.537255
0.000000 0.941176 0.619608
0.000000 0.941176 0.709804
0.000000 0.937255 0.803922
0.000000 0.933333 0.894118
0.611765 0.000000 0.074510
0.623529 0.000000 0.125490
0.623529 0.000000 0.207843
0.647059 0.000000 0.298039
0.666667 0.000000 0.376471
0.701961 0.000000 0.470588
0.741176 0.000000 0.560784
0.792157 0.000000 0.650980
0.847059 0.000000 0.745098
0.607843 0.000000 0.070588
0.611765 0.000000 0.133333
0.615686 0.000000 0.207843
0.639216 0.000000 0.301961
0.658824 0.000000 0.384314
0.690196 0.000000 0.470588
0.733333 0.000000 0.564706
0.780392 0.000000 0.654902
0.839216 0.000000 0.749020
0.588235 0.039216 0.090196
0.592157 0.023529 0.137255
0.600000 0.000000 0.219608
0.615686 0.000000 0.309804
0.635294 0.000000 0.400000
0.670588 0.000000 0.490196
0.713726 0.000000 0.572549
0.756863 0.000000 0.670588
0.807843 0.000000 0.760784
0.560784 0.266667 0.105882
0.564706 0.270588 0.160784
0.568627 0.258824 0.239216
0.584314 0.254902 0.325490
0.607843 0.235294 0.411765
0.635294 0.215686 0.501961
0.682353 0.172549 0.588235
0.729412 0.113725 0.682353
0.784314 0.000000 0.768627
0.521569 0.415686 0.145098
0.525490 0.419608 0.192157
0.533333 0.411765 0.254902
0.545098 0.411765 0.345098
0.560784 0.403922 0.427451
0.600000 0.392157 0.517647
0.639216 0.376471 0.611765
0.678431 0.360784 0.709804
0.741176 0.325490 0.792157
0.466667 0.552941 0.180392
0.474510 0.549020 0.215686
0.470588 0.552941 0.282353
0.478431 0.552941 0.376471
0.513726 0.541176 0.454902
0.537255 0.541176 0.545098
0.584314 0.533333 0.635294
0.619608 0.521569 0.729412
0.666667 0.505882 0.819608
0.376471 0.682353 0.231373
0.396078 0.686275 0.254902
0.384314 0.686275 0.321569
0.400000 0.682353 0.392157
0.419608 0.682353 0.486275
0.450980 0.678431 0.572549
0.490196 0.674510 0.666667
0.560784 0.662745 0.745098
0.607843 0.654902 0.843137
0.227451 0.815686 0.278431
0.215686 0.815686 0.294118
0.247059 0.815686 0.352941
0.247059 0.811765 0.427451
0.294118 0.811765 0.505882
0.305882 0.807843 0.592157
0.368627 0.803922 0.690196
0.435294 0.800000 0.780392
0.521569 0.792157 0.866667
0.000000 0.945098 0.325490
0.000000 0.945098 0.345098
0.000000 0.945098 0.388235
0.000000 0.945098 0.454902
0.000000 0.941176 0.537255
0.000000 0.941176 0.631373
0.035294 0.941176 0.709804
0.243137 0.937255 0.807843
0.372549 0.929412 0.894118
0.752941 0.000000 0.098039
0.760784 0.000000 0.152941
0.768627 0.000000 0.227451
0.780392 0.000000 0.313726
0.800000 0.000000 0.403922
0.827451 0.000000 0.486275
0.854902 0.000000 0.580392
0.898039 0.000000 0.666667
0.933333 0.000000 0.756863
0.749020 0.000000 0.098039
0.752941 0.000000 0.156863
0.764706 0.000000 0.231373
0.776471 0.000000 0.313726
0.792157 0.000000 0.400000
0.819608 0.000000 0.494118
0.850980 0.000000 0.580392
0.886275 0.000000 0.670588
0.937255 0.000000 0.764706
0.733333 0.000000 0.121569
0.737255 0.000000 0.164706
0.741176 0.000000 0.239216
0.752941 0.000000 0.325490
0.772549 0.000000 0.411765
0.803922 0.000000 0.505882
0.835294 0.000000 0.596078
0.874510 0.000000 0.678431
0.921569 0.000000 0.776471
0.713726 0.223529 0.137255
0.713726 0.219608 0.180392
0.717647 0.215686 0.254902
0.733333 0.200000 0.337255
0.749020 0.192157 0.431373
0.768627 0.160784 0.513726
0.807843 0.082353 0.607843
0.843137 0.000000 0.698039
0.890196 0.000000 0.784314
0.678431 0.400000 0.168627
0.674510 0.400000 0.207843
0.686275 0.396078 0.278431
0.694118 0.392157 0.356863
0.709804 0.380392 0.447059
0.733333 0.372549 0.537255
0.764706 0.352941 0.619608
0.811765 0.325490 0.709804
0.854902 0.294118 0.807843
0.631373 0.545098 0.203922
0.639216 0.541176 0.239216
0.635294 0.541176 0.301961
0.654902 0.537255 0.376471
0.662745 0.533333 0.466667
0.686275 0.525490 0.556863
0.717647 0.521569 0.643137
0.752941 0.501961 0.733333
0.803922 0.490196 0.823529
0.576471 0.674510 0.235294
0.572549 0.682353 0.274510
0.576471 0.678431 0.325490
0.592157 0.674510 0.403922
0.600000 0.674510 0.490196
0.631373 0.666667 0.580392
0.658824 0.662745 0.666667
0.690196 0.658824 0.756863
0.745098 0.647059 0.850980
0.490196 0.811765 0.274510
0.501961 0.807843 0.301961
0.498039 0.811765 0.368627
0.505882 0.807843 0.435294
0.517647 0.807843 0.513726
0.537255 0.803922 0.600000
0.564706 0.803922 0.698039
0.619608 0.796078 0.788235
0.662745 0.788235 0.870588
0.364706 0.941176 0.325490
0.384314 0.941176 0.345098
0.380392 0.937255 0.392157
0.392157 0.941176 0.466667
0.392157 0.941176 0.549020
0.427451 0.937255 0.631373
0.466667 0.933333 0.721569
0.509804 0.929412 0.811765
0.568627 0.925490 0.898039
0.898039 0.000000 0.129412
0.901961 0.000000 0.176471
0.905882 0.000000 0.247059
0.917647 0.000000 0.337255
0.933333 0.000000 0.423529
0.952941 0.000000 0.509804
0.980392 0.000000 0.592157
1.000000 0.000000 0.686275
1.000000 0.000000 0.776471
0.894118 0.000000 0.133333
0.894118 0.000000 0.176471
0.901961 0.000000 0.254902
0.909804 0.000000 0.333333
0.921569 0.000000 0.427451
0.945098 0.000000 0.513726
0.972549 0.000000 0.603922
1.000000 0.000000 0.686275
1.000000 0.000000 0.780392
0.878431 0.000000 0.145098
0.878431 0.000000 0.188235
0.886275 0.000000 0.262745
0.890196 0.000000 0.345098
0.917647 0.000000 0.431373
0.929412 0.000000 0.517647
0.960784 0.000000 0.607843
0.992157 0.000000 0.701961
1.000000 0.000000 0.784314
0.858824 0.149020 0.160784
0.858824 0.149020 0.203922
0.866667 0.137255 0.274510
0.874510 0.109804 0.356863
0.890196 0.066667 0.439216
0.901961 0.000000 0.533333
0.937255 0.000000 0.615686
0.972549 0.000000 0.713726
1.000000 0.000000 0.803922
0.827451 0.372549 0.184314
0.827451 0.368627 0.223529
0.835294 0.364706 0.290196
0.843137 0.356863 0.376471
0.858824 0.352941 0.462745
0.878431 0.333333 0.552941
0.905882 0.309804 0.635294
0.933333 0.282353 0.721569
0.976471 0.243137 0.823529
0.792157 0.525490 0.219608
0.792157 0.525490 0.250980
0.796078 0.525490 0.317647
0.803922 0.521569 0.396078
0.819608 0.513726 0.482353
0.839216 0.509804 0.564706
0.866667 0.494118 0.658824
0.894118 0.482353 0.741176
0.925490 0.466667 0.831373
0.752941 0.666667 0.254902
0.752941 0.666667 0.282353
0.749020 0.666667 0.341176
0.756863 0.666667 0.415686
0.768627 0.662745 0.505882
0.788235 0.654902 0.592157
0.807843 0.650980 0.678431
0.839216 0.639216 0.764706
0.878431 0.627451 0.854902
0.686275 0.803922 0.298039
0.682353 0.803922 0.313726
0.690196 0.803922 0.380392
0.698039 0.800000 0.447059
0.701961 0.800000 0.525490
0.717647 0.796078 0.615686
0.756863 0.792157 0.705882
0.784314 0.788235 0.792157
0.815686 0.780392 0.882353
0.596078 0.937255 0.333333
0.611765 0.937255 0.352941
0.607843 0.933333 0.407843
0.623529 0.933333 0.474510
0.627451 0.937255 0.556863
0.654902 0.933333 0.643137
0.674510 0.925490 0.729412
0.705882 0.925490 0.819608
0.745098 0.921569 0.905882
1.000000 0.000000 0.164706
1.000000 0.000000 0.200000
1.000000 0.000000 0.274510
1.000000 0.000000 0.356863
1.000000 0.000000 0.435294
1.000000 0.000000 0.529412
1.000000 0.000000 0.619608
1.000000 0.000000 0.705882
1.000000 0.000000 0.796078
1.000000 0.000000 0.164706
1.000000 0.000000 0.207843
1.000000 0.000000 0.274510
1.000000 0.000000 0.360784
1.000000 0.000000 0.447059
1.000000 0.000000 0.529412
1.000000 0.000000 0.619608
1.000000 0.000000 0.705882
1.000000 0.000000 0.796078
1.000000 0.000000 0.168627
1.000000 0.000000 0.215686
1.000000 0.000000 0.282353
1.000000 0.000000 0.360784
1.000000 0.000000 0.447059
1.000000 0.000000 0.537255
1.000000 0.000000 0.627451
1.000000 0.000000 0.717647
1.000000 0.000000 0.803922
1.000000 0.000000 0.188235
1.000000 0.000000 0.223529
1.000000 0.000000 0.294118
1.000000 0.000000 0.376471
1.000000 0.000000 0.458824
1.000000 0.000000 0.549020
1.000000 0.000000 0.635294
1.000000 0.000000 0.729412
1.000000 0.000000 0.811765
0.980392 0.325490 0.215686
0.984314 0.321569 0.243137
0.976471 0.325490 0.309804
0.988235 0.313726 0.388235
1.000000 0.301961 0.478431
1.000000 0.274510 0.560784
1.000000 0.254902 0.654902
1.000000 0.215686 0.737255
1.000000 0.168627 0.831373
0.949020 0.501961 0.239216
0.945098 0.501961 0.274510
0.945098 0.501961 0.329412
0.956863 0.494118 0.403922
0.964706 0.490196 0.486275
0.988235 0.478431 0.580392
1.000000 0.470588 0.670588
1.000000 0.454902 0.756863
1.000000 0.427451 0.847059
0.901961 0.654902 0.270588
0.913725 0.650980 0.298039
0.909804 0.650980 0.352941
0.913725 0.650980 0.435294
0.929412 0.643137 0.513726
0.937255 0.639216 0.596078
0.960784 0.631373 0.690196
0.988235 0.619608 0.780392
1.000000 0.611765 0.870588
0.854902 0.796078 0.305882
0.854902 0.796078 0.333333
0.858824 0.792157 0.384314
0.870588 0.788235 0.454902
0.870588 0.792157 0.537255
0.886275 0.784314 0.623529
0.901961 0.780392 0.709804
0.937255 0.772549 0.800000
0.960784 0.764706 0.890196
0.792157 0.933333 0.349020
0.803922 0.929412 0.376471
0.800000 0.925490 0.423529
0.800000 0.929412 0.486275
0.803922 0.925490 0.568627
0.819608 0.921569 0.650980
0.843137 0.921569 0.733333
0.874510 0.913725 0.823529
0.901961 0.905882 0.913725
