src/LUT/out.cube
# Created by script
TITLE "Reinhard_from__to_all"
LUT_3D_SIZE 33
DOMAIN_MIN 0.0 0.0 0.0
DOMAIN_MAX 1.0 1.0 1.0
0.000000 0.000000 0.007843
0.019608 0.000000 0.019608
0.007843 0.000000 0.047059
0.019608 0.000000 0.074510
0.023529 0.000000 0.094118
0.062745 0.000000 0.113725
0.082353 0.000000 0.137255
0.098039 0.000000 0.152941
0.129412 0.000000 0.168627
0.149020 0.000000 0.188235
0.152941 0.000000 0.196078
0.176471 0.000000 0.215686
0.176471 0.000000 0.223529
0.196078 0.000000 0.243137
0.211765 0.000000 0.270588
0.227451 0.000000 0.286275
0.247059 0.000000 0.309804
0.262745 0.000000 0.333333
0.290196 0.000000 0.356863
0.305882 0.000000 0.384314
0.329412 0.000000 0.411765
0.349020 0.000000 0.435294
0.376471 0.000000 0.454902
0.392157 0.000000 0.478431
0.415686 0.000000 0.501961
0.439216 0.000000 0.529412
0.462745 0.000000 0.556863
0.486275 0.000000 0.584314
0.501961 0.000000 0.600000
0.525490 0.000000 0.627451
0.541176 0.000000 0.658824
0.568627 0.000000 0.678431
0.580392 0.000000 0.698039
0.000000 0.007843 0.000000
0.000000 0.007843 0.019608
0.000000 0.007843 0.039216
0.000000 0.000000 0.062745
0.007843 0.000000 0.094118
0.011765 0.000000 0.105882
0.070588 0.000000 0.125490
0.086275 0.000000 0.145098
0.117647 0.000000 0.160784
0.137255 0.000000 0.172549
0.149020 0.000000 0.192157
0.149020 0.000000 0.203922
0.168627 0.000000 0.219608
0.184314 0.000000 0.243137
0.200000 0.000000 0.266667
0.219608 0.000000 0.290196
0.247059 0.000000 0.313726
0.254902 0.000000 0.337255
0.286275 0.000000 0.364706
0.305882 0.000000 0.388235
0.321569 0.000000 0.411765
0.352941 0.000000 0.431373
0.372549 0.000000 0.458824
0.392157 0.000000 0.482353
0.411765 0.000000 0.509804
0.431373 0.000000 0.537255
0.458824 0.000000 0.556863
0.478431 0.000000 0.580392
0.501961 0.000000 0.603922
0.517647 0.000000 0.631373
0.537255 0.000000 0.650980
0.556863 0.000000 0.678431
0.584314 0.000000 0.698039
0.000000 0.023529 0.000000
0.000000 0.019608 0.000000
0.000000 0.019608 0.019608
0.000000 0.011765 0.047059
0.000000 0.003922 0.074510
0.003922 0.000000 0.098039
0.035294 0.000000 0.117647
0.062745 0.000000 0.133333
0.090196 0.000000 0.152941
0.113725 0.000000 0.168627
0.121569 0.000000 0.176471
0.141176 0.000000 0.203922
0.156863 0.000000 0.223529
0.172549 0.000000 0.247059
0.188235 0.000000 0.270588
0.215686 0.000000 0.294118
0.231373 0.000000 0.317647
0.258824 0.000000 0.341176
0.278431 0.000000 0.364706
0.301961 0.000000 0.388235
0.321569 0.000000 0.411765
0.341176 0.000000 0.439216
0.360784 0.000000 0.458824
0.384314 0.000000 0.486275
0.403922 0.000000 0.509804
0.423529 0.000000 0.533333
0.454902 0.000000 0.552941
0.474510 0.000000 0.584314
0.494118 0.000000 0.607843
0.517647 0.000000 0.635294
0.545098 0.000000 0.654902
0.564706 0.000000 0.678431
0.588235 0.000000 0.705882
0.000000 0.047059 0.000000
0.000000 0.043137 0.000000
0.000000 0.047059 0.000000
0.000000 0.027451 0.023529
0.000000 0.023529 0.062745
0.000000 0.011765 0.086275
0.000000 0.000000 0.101961
0.000000 0.000000 0.121569
0.066667 0.000000 0.137255
0.086275 0.000000 0.160784
0.105882 0.000000 0.184314
0.113725 0.000000 0.203922
0.137255 0.000000 0.231373
0.156863 0.000000 0.250980
0.172549 0.000000 0.278431
0.203922 0.000000 0.294118
0.223529 0.000000 0.325490
0.243137 0.000000 0.345098
0.274510 0.000000 0.368627
0.294118 0.000000 0.392157
0.309804 0.000000 0.419608
0.337255 0.000000 0.443137
0.356863 0.000000 0.466667
0.380392 0.000000 0.490196
0.400000 0.000000 0.509804
0.423529 0.000000 0.537255
0.443137 0.000000 0.560784
0.470588 0.000000 0.584314
0.494118 0.000000 0.611765
0.509804 0.000000 0.631373
0.537255 0.000000 0.650980
0.556863 0.000000 0.682353
0.576471 0.000000 0.709804
0.000000 0.074510 0.000000
0.000000 0.074510 0.000000
0.000000 0.078431 0.000000
0.000000 0.070588 0.011765
0.000000 0.066667 0.054902
0.000000 0.062745 0.078431
0.000000 0.050980 0.105882
0.000000 0.050980 0.121569
0.011765 0.035294 0.145098
0.050980 0.031373 0.168627
0.070588 0.031373 0.188235
0.094118 0.027451 0.211765
0.121569 0.015686 0.235294
0.133333 0.007843 0.258824
0.164706 0.000000 0.282353
0.188235 0.000000 0.301961
0.215686 0.000000 0.325490
0.231373 0.000000 0.349020
0.254902 0.000000 0.372549
0.278431 0.000000 0.396078
0.305882 0.000000 0.423529
0.321569 0.000000 0.443137
0.341176 0.000000 0.470588
0.380392 0.000000 0.490196
0.388235 0.000000 0.517647
0.419608 0.000000 0.541176
0.443137 0.000000 0.560784
0.466667 0.000000 0.580392
0.486275 0.000000 0.611765
0.505882 0.000000 0.639216
0.525490 0.000000 0.658824
0.552941 0.000000 0.686275
0.580392 0.000000 0.705882
0.000000 0.113725 0.000000
0.000000 0.113725 0.000000
0.000000 0.109804 0.000000
0.000000 0.109804 0.023529
0.000000 0.101961 0.058824
0.000000 0.098039 0.086275
0.000000 0.098039 0.105882
0.000000 0.094118 0.129412
0.000000 0.090196 0.149020
0.000000 0.086275 0.172549
0.035294 0.082353 0.196078
0.070588 0.074510 0.215686
0.105882 0.062745 0.239216
0.129412 0.054902 0.262745
0.152941 0.043137 0.286275
0.172549 0.019608 0.309804
0.203922 0.000000 0.333333
0.223529 0.000000 0.352941
0.243137 0.000000 0.376471
0.274510 0.000000 0.400000
0.298039 0.000000 0.423529
0.313726 0.000000 0.447059
0.345098 0.000000 0.470588
0.364706 0.000000 0.498039
0.384314 0.000000 0.521569
0.407843 0.000000 0.541176
0.431373 0.000000 0.572549
0.447059 0.000000 0.592157
0.474510 0.000000 0.611765
0.498039 0.000000 0.635294
0.517647 0.000000 0.658824
0.549020 0.000000 0.682353
0.564706 0.000000 0.713726
0.000000 0.133333 0.000000
0.000000 0.133333 0.000000
0.000000 0.133333 0.007843
0.000000 0.133333 0.039216
0.000000 0.129412 0.070588
0.000000 0.129412 0.090196
0.000000 0.129412 0.117647
0.000000 0.121569 0.133333
0.000000 0.121569 0.160784
0.000000 0.121569 0.180392
0.000000 0.117647 0.203922
0.054902 0.109804 0.223529
0.078431 0.105882 0.247059
0.094118 0.101961 0.266667
0.121569 0.098039 0.294118
0.149020 0.090196 0.317647
0.180392 0.074510 0.341176
0.211765 0.047059 0.356863
0.231373 0.039216 0.380392
0.258824 0.007843 0.407843
0.286275 0.000000 0.427451
0.301961 0.000000 0.450980
0.325490 0.000000 0.474510
0.349020 0.000000 0.498039
0.376471 0.000000 0.525490
0.392157 0.000000 0.545098
0.427451 0.000000 0.564706
0.439216 0.000000 0.596078
0.466667 0.000000 0.619608
0.490196 0.000000 0.643137
0.509804 0.000000 0.666667
0.537255 0.000000 0.690196
0.552941 0.000000 0.713726
0.000000 0.160784 0.000000
0.000000 0.156863 0.000000
0.000000 0.156863 0.019608
0.000000 0.156863 0.050980
0.000000 0.160784 0.082353
0.000000 0.156863 0.098039
0.000000 0.156863 0.125490
0.000000 0.152941 0.145098
0.000000 0.152941 0.164706
0.000000 0.149020 0.192157
0.000000 0.149020 0.203922
0.000000 0.145098 0.231373
0.023529 0.145098 0.254902
0.066667 0.141176 0.274510
0.098039 0.133333 0.298039
0.137255 0.129412 0.321569
0.156863 0.125490 0.345098
0.188235 0.113725 0.368627
0.211765 0.105882 0.388235
0.243137 0.090196 0.407843
0.274510 0.062745 0.435294
0.290196 0.039216 0.458824
0.313726 0.007843 0.478431
0.337255 0.000000 0.501961
0.360784 0.000000 0.529412
0.384314 0.000000 0.549020
0.411765 0.000000 0.572549
0.439216 0.000000 0.600000
0.454902 0.000000 0.623529
0.478431 0.000000 0.643137
0.501961 0.000000 0.674510
0.521569 0.000000 0.698039
0.545098 0.000000 0.717647
0.000000 0.184314 0.000000
0.000000 0.188235 0.015686
0.000000 0.184314 0.047059
0.000000 0.184314 0.070588
0.000000 0.184314 0.082353
0.000000 0.184314 0.105882
0.000000 0.180392 0.129412
0.000000 0.184314 0.149020
0.000000 0.184314 0.176471
0.000000 0.184314 0.196078
0.000000 0.180392 0.219608
0.000000 0.176471 0.231373
0.000000 0.176471 0.258824
0.007843 0.176471 0.282353
0.058824 0.172549 0.305882
0.098039 0.168627 0.325490
0.133333 0.164706 0.352941
0.168627 0.152941 0.372549
0.188235 0.149020 0.400000
0.227451 0.137255 0.419608
0.243137 0.129412 0.439216
0.282353 0.109804 0.462745
0.301961 0.098039 0.486275
0.325490 0.082353 0.509804
0.349020 0.050980 0.533333
0.372549 0.011765 0.556863
0.392157 0.000000 0.584314
0.423529 0.000000 0.603922
0.447059 0.000000 0.627451
0.470588 0.000000 0.647059
0.486275 0.000000 0.670588
0.509804 0.000000 0.701961
0.529412 0.000000 0.721569
0.000000 0.215686 0.015686
0.000000 0.215686 0.035294
0.000000 0.215686 0.050980
0.000000 0.215686 0.074510
0.000000 0.211765 0.094118
0.000000 0.215686 0.113725
0.000000 0.215686 0.137255
0.000000 0.215686 0.156863
0.000000 0.215686 0.180392
0.000000 0.215686 0.200000
0.000000 0.211765 0.223529
0.000000 0.211765 0.250980
0.000000 0.211765 0.262745
0.000000 0.207843 0.290196
0.007843 0.203922 0.313726
0.070588 0.200000 0.333333
0.113725 0.200000 0.360784
0.133333 0.196078 0.380392
0.172549 0.188235 0.403922
0.192157 0.184314 0.427451
0.235294 0.172549 0.447059
0.254902 0.168627 0.470588
0.278431 0.160784 0.494118
0.301961 0.145098 0.513726
0.325490 0.137255 0.537255
0.360784 0.113725 0.564706
0.384314 0.094118 0.584314
0.403922 0.070588 0.611765
0.435294 0.007843 0.635294
0.458824 0.000000 0.654902
0.474510 0.000000 0.678431
0.494118 0.000000 0.705882
0.521569 0.000000 0.725490
0.000000 0.243137 0.023529
0.000000 0.247059 0.050980
0.000000 0.247059 0.062745
0.000000 0.247059 0.078431
0.000000 0.247059 0.098039
0.000000 0.243137 0.117647
0.000000 0.247059 0.145098
0.000000 0.243137 0.164706
0.000000 0.247059 0.184314
0.000000 0.247059 0.211765
0.000000 0.243137 0.227451
0.000000 0.243137 0.254902
0.000000 0.243137 0.278431
0.000000 0.243137 0.298039
0.000000 0.239216 0.321569
0.000000 0.239216 0.341176
0.027451 0.235294 0.364706
0.101961 0.231373 0.384314
0.133333 0.231373 0.411765
0.176471 0.223529 0.435294
0.196078 0.215686 0.454902
0.239216 0.207843 0.478431
0.250980 0.203922 0.498039
0.286275 0.196078 0.521569
0.313726 0.188235 0.549020
0.333333 0.176471 0.564706
0.368627 0.160784 0.592157
0.388235 0.152941 0.611765
0.411765 0.133333 0.639216
0.443137 0.101961 0.662745
0.470588 0.074510 0.686275
0.482353 0.050980 0.713726
0.505882 0.000000 0.733333
0.000000 0.274510 0.039216
0.000000 0.274510 0.058824
0.000000 0.274510 0.074510
0.000000 0.274510 0.086275
0.000000 0.278431 0.109804
0.000000 0.278431 0.125490
0.000000 0.274510 0.149020
0.000000 0.278431 0.176471
0.000000 0.278431 0.188235
0.000000 0.278431 0.215686
0.000000 0.274510 0.235294
0.000000 0.274510 0.254902
0.000000 0.274510 0.282353
0.000000 0.274510 0.305882
0.000000 0.270588 0.325490
0.000000 0.270588 0.345098
0.000000 0.266667 0.368627
0.050980 0.262745 0.388235
0.094118 0.262745 0.415686
0.149020 0.254902 0.439216
0.172549 0.250980 0.462745
0.196078 0.250980 0.486275
0.235294 0.243137 0.505882
0.258824 0.243137 0.529412
0.298039 0.227451 0.549020
0.317647 0.223529 0.576471
0.333333 0.215686 0.600000
0.368627 0.203922 0.619608
0.396078 0.192157 0.647059
0.431373 0.172549 0.670588
0.450980 0.156863 0.686275
0.470588 0.141176 0.717647
0.501961 0.105882 0.737255
0.000000 0.309804 0.050980
0.000000 0.309804 0.066667
0.000000 0.309804 0.086275
0.000000 0.309804 0.098039
0.000000 0.305882 0.121569
0.000000 0.305882 0.133333
0.000000 0.309804 0.156863
0.000000 0.309804 0.180392
0.000000 0.305882 0.200000
0.000000 0.309804 0.223529
0.000000 0.305882 0.247059
0.000000 0.305882 0.262745
0.000000 0.305882 0.290196
0.000000 0.305882 0.313726
0.000000 0.301961 0.329412
0.000000 0.301961 0.352941
0.000000 0.301961 0.380392
0.000000 0.298039 0.396078
0.015686 0.294118 0.419608
0.094118 0.290196 0.443137
0.117647 0.294118 0.470588
0.172549 0.286275 0.494118
0.196078 0.282353 0.513726
0.235294 0.274510 0.533333
0.266667 0.270588 0.560784
0.301961 0.262745 0.576471
0.325490 0.258824 0.603922
0.341176 0.250980 0.627451
0.384314 0.239216 0.650980
0.403922 0.231373 0.678431
0.435294 0.215686 0.694118
0.458824 0.203922 0.717647
0.482353 0.192157 0.745098
0.000000 0.337255 0.066667
0.000000 0.337255 0.074510
0.000000 0.337255 0.082353
0.000000 0.337255 0.105882
0.000000 0.341176 0.125490
0.000000 0.341176 0.145098
0.000000 0.341176 0.168627
0.000000 0.341176 0.188235
0.000000 0.341176 0.207843
0.000000 0.337255 0.227451
0.000000 0.341176 0.254902
0.000000 0.337255 0.274510
0.000000 0.341176 0.298039
0.000000 0.341176 0.317647
0.000000 0.337255 0.337255
0.000000 0.337255 0.360784
0.000000 0.333333 0.384314
0.000000 0.333333 0.411765
0.000000 0.333333 0.427451
0.000000 0.329412 0.450980
0.098039 0.321569 0.474510
0.133333 0.321569 0.498039
0.164706 0.317647 0.521569
0.192157 0.317647 0.549020
0.235294 0.309804 0.564706
0.278431 0.301961 0.588235
0.309804 0.298039 0.607843
0.325490 0.294118 0.631373
0.349020 0.290196 0.662745
0.380392 0.278431 0.678431
0.419608 0.266667 0.705882
0.443137 0.254902 0.725490
0.454902 0.250980 0.752941
0.000000 0.372549 0.078431
0.000000 0.372549 0.094118
0.000000 0.372549 0.101961
0.000000 0.372549 0.113725
0.000000 0.372549 0.133333
0.000000 0.372549 0.149020
0.000000 0.368627 0.168627
0.000000 0.372549 0.200000
0.000000 0.368627 0.219608
0.000000 0.368627 0.231373
0.000000 0.372549 0.262745
0.000000 0.368627 0.282353
0.000000 0.368627 0.301961
0.000000 0.368627 0.325490
0.000000 0.368627 0.349020
0.000000 0.368627 0.368627
0.000000 0.368627 0.388235
0.000000 0.364706 0.415686
0.000000 0.364706 0.439216
0.000000 0.360784 0.454902
0.000000 0.360784 0.478431
0.078431 0.356863 0.505882
0.121569 0.356863 0.529412
0.156863 0.352941 0.552941
0.200000 0.349020 0.576471
0.235294 0.345098 0.592157
0.278431 0.333333 0.615686
0.309804 0.333333 0.639216
0.329412 0.329412 0.662745
0.360784 0.321569 0.690196
0.388235 0.313726 0.709804
0.407843 0.309804 0.737255
0.439216 0.298039 0.756863
0.000000 0.403922 0.094118
0.000000 0.403922 0.101961
0.000000 0.403922 0.109804
0.000000 0.403922 0.117647
0.000000 0.403922 0.141176
0.000000 0.400000 0.156863
0.000000 0.403922 0.184314
0.000000 0.403922 0.203922
0.000000 0.403922 0.223529
0.000000 0.403922 0.247059
0.000000 0.403922 0.266667
0.000000 0.400000 0.286275
0.000000 0.403922 0.309804
0.000000 0.403922 0.333333
0.000000 0.400000 0.356863
0.000000 0.400000 0.380392
0.000000 0.396078 0.392157
0.000000 0.396078 0.423529
0.000000 0.396078 0.447059
0.000000 0.396078 0.470588
0.000000 0.392157 0.486275
0.000000 0.392157 0.509804
0.000000 0.388235 0.537255
0.098039 0.388235 0.556863
0.141176 0.384314 0.580392
0.203922 0.376471 0.603922
0.239216 0.372549 0.619608
0.278431 0.372549 0.650980
0.309804 0.364706 0.666667
0.329412 0.360784 0.690196
0.364706 0.356863 0.721569
0.388235 0.349020 0.737255
0.427451 0.337255 0.760784
0.000000 0.435294 0.101961
0.000000 0.435294 0.109804
0.000000 0.435294 0.129412
0.000000 0.431373 0.137255
0.000000 0.435294 0.152941
0.000000 0.435294 0.168627
0.000000 0.435294 0.192157
0.000000 0.435294 0.207843
0.000000 0.431373 0.235294
0.000000 0.435294 0.250980
0.000000 0.435294 0.270588
0.000000 0.431373 0.290196
0.000000 0.435294 0.321569
0.000000 0.431373 0.333333
0.000000 0.435294 0.364706
0.000000 0.435294 0.388235
0.000000 0.431373 0.407843
0.000000 0.431373 0.431373
0.000000 0.431373 0.454902
0.000000 0.423529 0.470588
0.000000 0.427451 0.494118
0.000000 0.423529 0.513726
0.000000 0.423529 0.541176
0.000000 0.419608 0.568627
0.098039 0.415686 0.592157
0.160784 0.411765 0.607843
0.192157 0.411765 0.631373
0.250980 0.407843 0.654902
0.274510 0.403922 0.678431
0.298039 0.400000 0.701961
0.341176 0.392157 0.721569
0.364706 0.392157 0.749020
0.392157 0.384314 0.768627
0.000000 0.466667 0.109804
0.000000 0.462745 0.117647
0.000000 0.462745 0.129412
0.000000 0.466667 0.145098
0.000000 0.462745 0.160784
0.000000 0.466667 0.180392
0.000000 0.466667 0.203922
0.000000 0.466667 0.215686
0.000000 0.466667 0.239216
0.000000 0.466667 0.262745
0.000000 0.466667 0.282353
0.000000 0.462745 0.301961
0.000000 0.466667 0.325490
0.000000 0.462745 0.345098
0.000000 0.466667 0.368627
0.000000 0.462745 0.388235
0.000000 0.466667 0.411765
0.000000 0.462745 0.435294
0.000000 0.458824 0.454902
0.000000 0.462745 0.478431
0.000000 0.458824 0.501961
0.000000 0.458824 0.525490
0.000000 0.454902 0.549020
0.000000 0.450980 0.572549
0.000000 0.450980 0.596078
0.050980 0.447059 0.619608
0.137255 0.443137 0.635294
0.176471 0.443137 0.662745
0.243137 0.439216 0.682353
0.270588 0.439216 0.705882
0.294118 0.435294 0.733333
0.337255 0.427451 0.749020
0.364706 0.427451 0.780392
0.000000 0.498039 0.125490
0.000000 0.498039 0.133333
0.000000 0.494118 0.145098
0.000000 0.494118 0.152941
0.000000 0.494118 0.168627
0.000000 0.498039 0.188235
0.000000 0.498039 0.203922
0.000000 0.498039 0.227451
0.000000 0.498039 0.247059
0.000000 0.501961 0.274510
0.000000 0.498039 0.286275
0.000000 0.494118 0.305882
0.000000 0.498039 0.333333
0.000000 0.498039 0.356863
0.000000 0.498039 0.376471
0.000000 0.498039 0.396078
0.000000 0.498039 0.427451
0.000000 0.494118 0.447059
0.000000 0.494118 0.462745
0.000000 0.494118 0.486275
0.000000 0.490196 0.513726
0.000000 0.490196 0.529412
0.000000 0.490196 0.556863
0.000000 0.490196 0.580392
0.000000 0.486275 0.603922
0.000000 0.486275 0.627451
0.000000 0.478431 0.647059
0.113725 0.482353 0.670588
0.203922 0.474510 0.694118
0.231373 0.474510 0.713726
0.262745 0.470588 0.737255
0.290196 0.466667 0.760784
0.349020 0.458824 0.780392
0.000000 0.529412 0.141176
0.000000 0.529412 0.141176
0.000000 0.529412 0.152941
0.000000 0.525490 0.160784
0.000000 0.529412 0.180392
0.000000 0.529412 0.200000
0.000000 0.533333 0.215686
0.000000 0.529412 0.235294
0.000000 0.529412 0.250980
0.000000 0.529412 0.274510
0.000000 0.529412 0.298039
0.000000 0.529412 0.317647
0.000000 0.529412 0.341176
0.000000 0.529412 0.364706
0.000000 0.525490 0.384314
0.000000 0.529412 0.407843
0.000000 0.529412 0.427451
0.000000 0.525490 0.454902
0.000000 0.525490 0.474510
0.000000 0.525490 0.498039
0.000000 0.525490 0.521569
0.000000 0.521569 0.541176
0.000000 0.521569 0.556863
0.000000 0.521569 0.584314
0.000000 0.521569 0.607843
0.000000 0.517647 0.631373
0.000000 0.517647 0.654902
0.000000 0.513726 0.682353
0.137255 0.509804 0.698039
0.184314 0.509804 0.725490
0.235294 0.505882 0.741176
0.282353 0.501961 0.768627
0.309804 0.498039 0.792157
0.000000 0.560784 0.141176
0.000000 0.560784 0.160784
0.000000 0.560784 0.168627
0.000000 0.560784 0.168627
0.000000 0.560784 0.188235
0.000000 0.564706 0.207843
0.000000 0.564706 0.223529
0.000000 0.560784 0.247059
0.000000 0.560784 0.262745
0.000000 0.560784 0.286275
0.000000 0.564706 0.301961
0.000000 0.560784 0.325490
0.000000 0.560784 0.345098
0.000000 0.564706 0.368627
0.000000 0.560784 0.392157
0.000000 0.556863 0.411765
0.000000 0.560784 0.435294
0.000000 0.556863 0.454902
0.000000 0.560784 0.478431
0.000000 0.560784 0.505882
0.000000 0.556863 0.525490
0.000000 0.556863 0.549020
0.000000 0.556863 0.572549
0.000000 0.552941 0.588235
0.000000 0.549020 0.611765
0.000000 0.549020 0.635294
0.000000 0.549020 0.658824
0.000000 0.549020 0.686275
0.000000 0.545098 0.709804
0.098039 0.545098 0.729412
0.156863 0.541176 0.752941
0.235294 0.537255 0.772549
0.270588 0.533333 0.796078
0.000000 0.592157 0.160784
0.000000 0.592157 0.168627
0.000000 0.592157 0.180392
0.000000 0.592157 0.188235
0.000000 0.592157 0.196078
0.000000 0.592157 0.215686
0.000000 0.592157 0.231373
0.000000 0.596078 0.258824
0.000000 0.596078 0.274510
0.000000 0.596078 0.286275
0.000000 0.592157 0.309804
0.000000 0.596078 0.337255
0.000000 0.592157 0.356863
0.000000 0.592157 0.376471
0.000000 0.596078 0.403922
0.000000 0.592157 0.415686
0.000000 0.592157 0.439216
0.000000 0.592157 0.470588
0.000000 0.588235 0.490196
0.000000 0.592157 0.505882
0.000000 0.588235 0.533333
0.000000 0.588235 0.552941
0.000000 0.588235 0.576471
0.000000 0.588235 0.600000
0.000000 0.584314 0.623529
0.000000 0.584314 0.639216
0.000000 0.584314 0.662745
0.000000 0.580392 0.690196
0.000000 0.580392 0.713726
0.000000 0.576471 0.741176
0.078431 0.576471 0.756863
0.180392 0.572549 0.784314
0.219608 0.568627 0.800000
0.000000 0.627451 0.176471
0.000000 0.627451 0.176471
0.000000 0.627451 0.188235
0.000000 0.623529 0.196078
0.000000 0.623529 0.215686
0.000000 0.623529 0.223529
0.000000 0.623529 0.239216
0.000000 0.623529 0.254902
0.000000 0.627451 0.282353
0.000000 0.627451 0.298039
0.000000 0.623529 0.321569
0.000000 0.623529 0.337255
0.000000 0.627451 0.360784
0.000000 0.627451 0.384314
0.000000 0.623529 0.403922
0.000000 0.627451 0.427451
0.000000 0.623529 0.450980
0.000000 0.623529 0.474510
0.000000 0.623529 0.494118
0.000000 0.623529 0.521569
0.000000 0.619608 0.533333
0.000000 0.623529 0.560784
0.000000 0.619608 0.588235
0.000000 0.619608 0.611765
0.000000 0.619608 0.631373
0.000000 0.615686 0.650980
0.000000 0.615686 0.674510
0.000000 0.611765 0.701961
0.000000 0.611765 0.725490
0.000000 0.611765 0.745098
0.000000 0.611765 0.768627
0.039216 0.603922 0.784314
0.137255 0.600000 0.807843
0.000000 0.658824 0.188235
0.000000 0.658824 0.196078
0.000000 0.658824 0.203922
0.000000 0.658824 0.203922
0.000000 0.658824 0.223529
0.000000 0.658824 0.231373
0.000000 0.658824 0.250980
0.000000 0.654902 0.266667
0.000000 0.654902 0.282353
0.000000 0.654902 0.305882
0.000000 0.658824 0.333333
0.000000 0.654902 0.349020
0.000000 0.654902 0.368627
0.000000 0.658824 0.396078
0.000000 0.658824 0.415686
0.000000 0.654902 0.431373
0.000000 0.658824 0.454902
0.000000 0.654902 0.478431
0.000000 0.654902 0.505882
0.000000 0.654902 0.521569
0.000000 0.650980 0.545098
0.000000 0.654902 0.568627
0.000000 0.654902 0.596078
0.000000 0.650980 0.615686
0.000000 0.650980 0.639216
0.000000 0.650980 0.658824
0.000000 0.647059 0.678431
0.000000 0.647059 0.705882
0.000000 0.647059 0.729412
0.000000 0.647059 0.756863
0.000000 0.639216 0.768627
0.000000 0.635294 0.796078
0.000000 0.635294 0.811765
0.000000 0.686275 0.200000
0.000000 0.686275 0.200000
0.000000 0.686275 0.211765
0.000000 0.686275 0.219608
0.000000 0.686275 0.227451
0.000000 0.686275 0.247059
0.000000 0.690196 0.266667
0.000000 0.690196 0.274510
0.000000 0.690196 0.294118
0.000000 0.690196 0.317647
0.000000 0.686275 0.333333
0.000000 0.686275 0.352941
0.000000 0.690196 0.380392
0.000000 0.686275 0.403922
0.000000 0.686275 0.423529
0.000000 0.690196 0.443137
0.000000 0.686275 0.466667
0.000000 0.690196 0.490196
0.000000 0.686275 0.509804
0.000000 0.686275 0.533333
0.000000 0.686275 0.549020
0.000000 0.686275 0.572549
0.000000 0.686275 0.596078
0.000000 0.686275 0.623529
0.000000 0.682353 0.643137
0.000000 0.682353 0.670588
0.000000 0.678431 0.682353
0.000000 0.678431 0.709804
0.000000 0.678431 0.733333
0.000000 0.678431 0.760784
0.000000 0.674510 0.780392
0.000000 0.670588 0.800000
0.000000 0.670588 0.823529
0.000000 0.721569 0.207843
0.000000 0.721569 0.219608
0.000000 0.721569 0.227451
0.000000 0.721569 0.227451
0.000000 0.721569 0.247059
0.000000 0.721569 0.254902
0.000000 0.721569 0.274510
0.000000 0.717647 0.290196
0.000000 0.717647 0.305882
0.000000 0.721569 0.325490
0.000000 0.721569 0.341176
0.000000 0.721569 0.364706
0.000000 0.717647 0.388235
0.000000 0.721569 0.415686
0.000000 0.721569 0.431373
0.000000 0.717647 0.450980
0.000000 0.717647 0.466667
0.000000 0.721569 0.490196
0.000000 0.717647 0.513726
0.000000 0.721569 0.537255
0.000000 0.717647 0.560784
0.000000 0.721569 0.584314
0.000000 0.717647 0.607843
0.000000 0.717647 0.631373
0.000000 0.713726 0.654902
0.000000 0.717647 0.670588
0.000000 0.713726 0.698039
0.000000 0.713726 0.717647
0.000000 0.709804 0.745098
0.000000 0.709804 0.764706
0.000000 0.705882 0.784314
0.000000 0.705882 0.811765
0.000000 0.705882 0.827451
0.000000 0.752941 0.223529
0.000000 0.749020 0.235294
0.000000 0.749020 0.235294
0.000000 0.756863 0.247059
0.000000 0.756863 0.254902
0.000000 0.752941 0.266667
0.000000 0.752941 0.282353
0.000000 0.752941 0.301961
0.000000 0.752941 0.317647
0.000000 0.752941 0.333333
0.000000 0.752941 0.356863
0.000000 0.756863 0.376471
0.000000 0.752941 0.400000
0.000000 0.752941 0.415686
0.000000 0.749020 0.439216
0.000000 0.752941 0.454902
0.000000 0.752941 0.478431
0.000000 0.749020 0.501961
0.000000 0.752941 0.525490
0.000000 0.752941 0.549020
0.000000 0.752941 0.572549
0.000000 0.749020 0.588235
0.000000 0.752941 0.615686
0.000000 0.749020 0.635294
0.000000 0.749020 0.662745
0.000000 0.745098 0.682353
