src/LUT/out.cube
# Created by script
TITLE "Reinhard_from__to_all"
LUT_3D_SIZE 5
DOMAIN_MIN 0.0 0.0 0.0
DOMAIN_MAX 1.0 1.0 1.0
0.000000 0.000000 0.007843
0.129412 0.000000 0.168627
0.247059 0.000000 0.309804
0.415686 0.000000 0.501961
0.580392 0.000000 0.698039
0.000000 0.184314 0.000000
0.000000 0.184314 0.176471
0.133333 0.164706 0.352941
0.349020 0.050980 0.533333
0.529412 0.000000 0.721569
0.000000 0.435294 0.101961
0.000000 0.431373 0.235294
0.000000 0.431373 0.407843
0.098039 0.415686 0.592157
0.392157 0.384314 0.768627
0.000000 0.686275 0.200000
0.000000 0.690196 0.294118
0.000000 0.686275 0.466667
0.000000 0.682353 0.643137
0.000000 0.670588 0.823529
0.000000 0.945098 0.294118
0.000000 0.945098 0.372549
0.000000 0.945098 0.529412
0.000000 0.941176 0.698039
0.000000 0.937255 0.886275
0.219608 0.000000 0.000000
0.247059 0.000000 0.145098
0.341176 0.000000 0.329412
0.474510 0.000000 0.517647
0.631373 0.000000 0.705882
0.137255 0.180392 0.015686
0.172549 0.176471 0.180392
0.278431 0.145098 0.356863
0.419608 0.007843 0.541176
0.584314 0.000000 0.729412
0.000000 0.435294 0.113725
0.000000 0.435294 0.235294
0.000000 0.431373 0.407843
0.258824 0.411765 0.592157
0.466667 0.376471 0.772549
0.000000 0.686275 0.200000
0.000000 0.690196 0.301961
0.000000 0.686275 0.466667
0.000000 0.682353 0.647059
0.168627 0.670588 0.827451
0.000000 0.945098 0.301961
0.000000 0.949020 0.380392
0.000000 0.945098 0.525490
0.000000 0.945098 0.705882
0.000000 0.937255 0.882353
0.482353 0.000000 0.023529
0.494118 0.000000 0.184314
0.549020 0.000000 0.356863
0.639216 0.000000 0.541176
0.752941 0.000000 0.729412
0.443137 0.133333 0.062745
0.458824 0.121569 0.203922
0.509804 0.043137 0.380392
0.603922 0.000000 0.560784
0.721569 0.000000 0.745098
0.352941 0.427451 0.133333
0.360784 0.427451 0.243137
0.415686 0.419608 0.423529
0.501961 0.400000 0.600000
0.623529 0.356863 0.784314
0.000000 0.686275 0.215686
0.000000 0.686275 0.313726
0.145098 0.682353 0.478431
0.305882 0.678431 0.658824
0.474510 0.662745 0.839216
0.000000 0.945098 0.301961
0.000000 0.945098 0.384314
0.000000 0.941176 0.537255
0.000000 0.941176 0.709804
0.000000 0.933333 0.894118
0.752941 0.000000 0.098039
0.768627 0.000000 0.227451
0.800000 0.000000 0.403922
0.854902 0.000000 0.580392
0.933333 0.000000 0.756863
0.733333 0.000000 0.121569
0.741176 0.000000 0.239216
0.772549 0.000000 0.411765
0.835294 0.000000 0.596078
0.921569 0.000000 0.776471
0.678431 0.400000 0.168627
0.686275 0.396078 0.278431
0.709804 0.380392 0.447059
0.764706 0.352941 0.619608
0.854902 0.294118 0.807843
0.576471 0.674510 0.235294
0.576471 0.678431 0.325490
0.600000 0.674510 0.490196
0.658824 0.662745 0.666667
0.745098 0.647059 0.850980
0.364706 0.941176 0.325490
0.380392 0.937255 0.392157
0.392157 0.941176 0.549020
0.466667 0.933333 0.721569
0.568627 0.925490 0.898039
1.000000 0.000000 0.164706
1.000000 0.000000 0.274510
1.000000 0.000000 0.435294
1.000000 0.000000 0.619608
1.000000 0.000000 0.796078
1.000000 0.000000 0.168627
1.000000 0.000000 0.282353
1.000000 0.000000 0.447059
1.000000 0.000000 0.627451
1.000000 0.000000 0.803922
0.980392 0.325490 0.215686
0.976471 0.325490 0.309804
1.000000 0.301961 0.478431
1.000000 0.254902 0.654902
1.000000 0.168627 0.831373
0.901961 0.654902 0.270588
0.909804 0.650980 0.352941
0.929412 0.643137 0.513726
0.960784 0.631373 0.690196
1.000000 0.611765 0.870588
0.792157 0.933333 0.349020
0.800000 0.925490 0.423529
0.803922 0.925490 0.568627
0.843137 0.921569 0.733333
0.901961 0.905882 0.913725
