Project_Web/PythonScripts/LUT_files/LUT2.cube
TITLE "OT color transfer form small selected dataset"
LUT_3D_SIZE 5
DOMAIN_MIN 0.0 0.0 0.0
DOMAIN_MAX 1.0 1.0 1.0
0.023529 0.027451 0.027451
0.235294 0.031373 0.027451
0.533333 0.101961 0.039216
0.827451 0.247059 0.160784
0.827451 0.247059 0.160784
0.156863 0.270588 0.074510
0.345098 0.282353 0.082353
0.580392 0.247059 0.090196
0.835294 0.329412 0.156863
0.827451 0.247059 0.160784
0.443137 0.529412 0.156863
0.458824 0.564706 0.200000
0.631373 0.556863 0.172549
0.792157 0.537255 0.168627
0.901961 0.533333 0.235294
0.741176 0.792157 0.400000
0.741176 0.792157 0.400000
0.741176 0.792157 0.400000
0.878431 0.780392 0.192157
0.894118 0.780392 0.141176
0.913725 0.882353 0.247059
0.913725 0.882353 0.247059
0.913725 0.882353 0.247059
0.913725 0.882353 0.247059
0.937255 0.921569 0.403922
0.019608 0.082353 0.227451
0.345098 0.105882 0.184314
0.541176 0.145098 0.105882
0.749020 0.207843 0.176471
0.827451 0.247059 0.160784
0.184314 0.239216 0.215686
0.282353 0.258824 0.243137
0.592157 0.274510 0.223529
0.776471 0.290196 0.270588
0.827451 0.247059 0.160784
0.450980 0.576471 0.329412
0.474510 0.592157 0.337255
0.650980 0.611765 0.360784
0.788235 0.494118 0.235294
0.901961 0.533333 0.235294
0.741176 0.792157 0.400000
0.741176 0.792157 0.400000
0.741176 0.792157 0.400000
0.839216 0.764706 0.317647
0.898039 0.788235 0.262745
0.913725 0.882353 0.247059
0.913725 0.882353 0.247059
0.913725 0.882353 0.247059
0.913725 0.882353 0.247059
0.937255 0.921569 0.403922
0.533333 0.239216 0.462745
0.533333 0.239216 0.462745
0.737255 0.298039 0.368627
0.949020 0.345098 0.388235
0.913725 0.419608 0.517647
0.411765 0.313726 0.466667
0.666667 0.384314 0.509804
0.745098 0.305882 0.380392
0.949020 0.345098 0.388235
0.878431 0.447059 0.560784
0.325490 0.694118 0.611765
0.368627 0.631373 0.572549
0.631373 0.607843 0.529412
0.800000 0.564706 0.545098
0.905882 0.564706 0.490196
0.654902 0.745098 0.431373
0.674510 0.752941 0.454902
0.698039 0.752941 0.505882
0.835294 0.792157 0.549020
0.898039 0.784314 0.505882
0.913725 0.882353 0.247059
0.913725 0.882353 0.247059
0.913725 0.882353 0.247059
0.917647 0.886275 0.262745
0.929412 0.917647 0.592157
0.831373 0.431373 0.623529
0.831373 0.431373 0.623529
0.831373 0.431373 0.623529
0.803922 0.392157 0.584314
0.890196 0.450980 0.592157
0.831373 0.431373 0.623529
0.831373 0.431373 0.623529
0.831373 0.431373 0.623529
0.803922 0.392157 0.584314
0.890196 0.450980 0.592157
0.450980 0.643137 0.780392
0.498039 0.662745 0.792157
0.776471 0.760784 0.788235
0.890196 0.698039 0.756863
0.909804 0.729412 0.741176
0.450980 0.807843 0.827451
0.450980 0.807843 0.827451
0.470588 0.807843 0.819608
0.827451 0.815686 0.772549
0.925490 0.811765 0.733333
0.784314 0.858824 0.690196
0.784314 0.858824 0.690196
0.807843 0.870588 0.698039
0.929412 0.925490 0.690196
0.949020 0.964706 0.807843
0.831373 0.431373 0.623529
0.831373 0.431373 0.623529
0.831373 0.431373 0.623529
0.803922 0.392157 0.584314
0.890196 0.450980 0.592157
0.831373 0.431373 0.623529
0.831373 0.431373 0.623529
0.831373 0.431373 0.623529
0.803922 0.392157 0.584314
0.890196 0.450980 0.592157
0.835294 0.835294 0.874510
0.835294 0.835294 0.874510
0.839216 0.839216 0.878431
0.882353 0.701961 0.756863
0.909804 0.768627 0.776471
0.639216 0.839216 0.913725
0.643137 0.843137 0.921569
0.701961 0.847059 0.933333
0.835294 0.850980 0.894118
0.945098 0.850980 0.843137
0.694118 0.941176 0.968627
0.694118 0.941176 0.968627
0.694118 0.941176 0.968627
0.854902 0.937255 0.917647
0.956863 0.960784 0.952941
