Project_Web/PythonScripts/LUT_files/LUT2.cube
TITLE "OT color transfer form small selected dataset"
LUT_3D_SIZE 33
DOMAIN_MIN 0.0 0.0 0.0
DOMAIN_MAX 1.0 1.0 1.0
0.023529 0.027451 0.027451
0.043137 0.031373 0.035294
0.050980 0.035294 0.027451
0.070588 0.043137 0.039216
0.113725 0.043137 0.039216
0.145098 0.043137 0.039216
0.168627 0.039216 0.039216
0.203922 0.039216 0.031373
0.235294 0.031373 0.027451
0.266667 0.050980 0.039216
0.294118 0.070588 0.050980
0.313726 0.074510 0.054902
0.400000 0.074510 0.050980
0.447059 0.086275 0.054902
0.450980 0.113725 0.090196
0.462745 0.125490 0.105882
0.533333 0.101961 0.039216
0.537255 0.090196 0.031373
0.541176 0.098039 0.035294
0.541176 0.098039 0.035294
0.549020 0.101961 0.039216
0.619608 0.109804 0.043137
0.690196 0.133333 0.058824
0.741176 0.160784 0.086275
0.827451 0.247059 0.160784
0.827451 0.247059 0.160784
0.827451 0.247059 0.160784
0.827451 0.247059 0.160784
0.827451 0.247059 0.160784
0.827451 0.247059 0.160784
0.827451 0.247059 0.160784
0.827451 0.247059 0.160784
0.827451 0.247059 0.160784
0.043137 0.039216 0.027451
0.050980 0.043137 0.035294
0.062745 0.047059 0.039216
0.074510 0.050980 0.039216
0.113725 0.050980 0.043137
0.137255 0.054902 0.043137
0.180392 0.047059 0.039216
0.207843 0.050980 0.043137
0.231373 0.043137 0.031373
0.274510 0.058824 0.047059
0.294118 0.070588 0.050980
0.321569 0.074510 0.050980
0.415686 0.078431 0.050980
0.443137 0.094118 0.058824
0.450980 0.113725 0.094118
0.474510 0.125490 0.098039
0.533333 0.101961 0.039216
0.537255 0.090196 0.031373
0.541176 0.098039 0.035294
0.541176 0.098039 0.035294
0.560784 0.101961 0.039216
0.619608 0.109804 0.043137
0.717647 0.133333 0.058824
0.741176 0.145098 0.074510
0.827451 0.247059 0.160784
0.827451 0.247059 0.160784
0.827451 0.247059 0.160784
0.827451 0.247059 0.160784
0.827451 0.247059 0.160784
0.827451 0.247059 0.160784
0.827451 0.247059 0.160784
0.827451 0.247059 0.160784
0.827451 0.247059 0.160784
0.047059 0.062745 0.039216
0.054902 0.066667 0.047059
0.062745 0.062745 0.047059
0.070588 0.074510 0.058824
0.101961 0.070588 0.058824
0.137255 0.070588 0.050980
0.188235 0.066667 0.050980
0.211765 0.066667 0.050980
0.227451 0.066667 0.050980
0.278431 0.078431 0.050980
0.294118 0.078431 0.054902
0.337255 0.078431 0.058824
0.403922 0.090196 0.058824
0.431373 0.105882 0.078431
0.447059 0.125490 0.109804
0.486275 0.117647 0.086275
0.533333 0.101961 0.039216
0.541176 0.098039 0.035294
0.541176 0.098039 0.035294
0.549020 0.101961 0.039216
0.588235 0.105882 0.043137
0.694118 0.137255 0.054902
0.737255 0.141176 0.062745
0.756863 0.160784 0.078431
0.827451 0.247059 0.160784
0.827451 0.247059 0.160784
0.827451 0.247059 0.160784
0.827451 0.247059 0.160784
0.827451 0.247059 0.160784
0.827451 0.247059 0.160784
0.827451 0.247059 0.160784
0.827451 0.247059 0.160784
0.827451 0.247059 0.160784
0.050980 0.086275 0.058824
0.050980 0.086275 0.058824
0.058824 0.086275 0.058824
0.078431 0.090196 0.058824
0.105882 0.086275 0.058824
0.133333 0.090196 0.058824
0.180392 0.082353 0.058824
0.207843 0.086275 0.062745
0.247059 0.090196 0.058824
0.278431 0.094118 0.058824
0.313726 0.090196 0.062745
0.372549 0.098039 0.062745
0.388235 0.098039 0.062745
0.435294 0.113725 0.090196
0.470588 0.125490 0.101961
0.509804 0.113725 0.070588
0.537255 0.090196 0.031373
0.541176 0.098039 0.035294
0.541176 0.098039 0.035294
0.572549 0.098039 0.031373
0.635294 0.117647 0.047059
0.721569 0.137255 0.050980
0.737255 0.141176 0.062745
0.752941 0.156863 0.074510
0.827451 0.247059 0.160784
0.827451 0.247059 0.160784
0.827451 0.247059 0.160784
0.827451 0.247059 0.160784
0.827451 0.247059 0.160784
0.827451 0.247059 0.160784
0.827451 0.247059 0.160784
0.827451 0.247059 0.160784
0.827451 0.247059 0.160784
0.050980 0.105882 0.058824
0.054902 0.109804 0.058824
0.062745 0.109804 0.058824
0.074510 0.113725 0.062745
0.094118 0.113725 0.066667
0.129412 0.117647 0.062745
0.188235 0.109804 0.062745
0.231373 0.117647 0.062745
0.266667 0.109804 0.062745
0.286275 0.109804 0.062745
0.337255 0.105882 0.066667
0.380392 0.098039 0.066667
0.407843 0.101961 0.066667
0.501961 0.117647 0.066667
0.537255 0.117647 0.070588
0.533333 0.113725 0.050980
0.541176 0.098039 0.035294
0.549020 0.101961 0.039216
0.576471 0.105882 0.035294
0.643137 0.121569 0.050980
0.717647 0.133333 0.058824
0.737255 0.141176 0.050980
0.741176 0.145098 0.054902
0.760784 0.168627 0.082353
0.827451 0.247059 0.160784
0.827451 0.247059 0.160784
0.827451 0.247059 0.160784
0.827451 0.247059 0.160784
0.827451 0.247059 0.160784
0.827451 0.247059 0.160784
0.827451 0.247059 0.160784
0.827451 0.247059 0.160784
0.827451 0.247059 0.160784
0.054902 0.129412 0.050980
0.050980 0.129412 0.058824
0.062745 0.133333 0.062745
0.082353 0.133333 0.058824
0.101961 0.133333 0.062745
0.133333 0.145098 0.062745
0.184314 0.145098 0.062745
0.247059 0.141176 0.062745
0.290196 0.137255 0.058824
0.321569 0.141176 0.066667
0.356863 0.133333 0.074510
0.388235 0.125490 0.070588
0.478431 0.117647 0.062745
0.556863 0.113725 0.054902
0.560784 0.117647 0.050980
0.549020 0.149020 0.058824
0.552941 0.133333 0.047059
0.603922 0.121569 0.047059
0.694118 0.137255 0.054902
0.729412 0.145098 0.054902
0.737255 0.141176 0.050980
0.741176 0.145098 0.054902
0.741176 0.145098 0.054902
0.772549 0.188235 0.090196
0.827451 0.247059 0.160784
0.827451 0.247059 0.160784
0.827451 0.247059 0.160784
0.827451 0.247059 0.160784
0.827451 0.247059 0.160784
0.827451 0.247059 0.160784
0.827451 0.247059 0.160784
0.827451 0.247059 0.160784
0.827451 0.247059 0.160784
0.074510 0.168627 0.062745
0.082353 0.168627 0.062745
0.090196 0.176471 0.062745
0.101961 0.176471 0.070588
0.125490 0.172549 0.066667
0.172549 0.180392 0.066667
0.211765 0.188235 0.058824
0.266667 0.188235 0.058824
0.301961 0.180392 0.058824
0.337255 0.172549 0.070588
0.368627 0.164706 0.070588
0.407843 0.168627 0.082353
0.517647 0.149020 0.066667
0.556863 0.125490 0.058824
0.552941 0.152941 0.062745
0.541176 0.196078 0.078431
0.576471 0.200000 0.078431
0.690196 0.156863 0.066667
0.737255 0.141176 0.062745
0.741176 0.145098 0.054902
0.741176 0.145098 0.054902
0.741176 0.145098 0.054902
0.752941 0.168627 0.062745
0.831373 0.294118 0.149020
0.835294 0.250980 0.164706
0.827451 0.247059 0.160784
0.827451 0.247059 0.160784
0.827451 0.247059 0.160784
0.827451 0.247059 0.160784
0.827451 0.247059 0.160784
0.827451 0.247059 0.160784
0.827451 0.247059 0.160784
0.827451 0.247059 0.160784
0.105882 0.215686 0.066667
0.117647 0.215686 0.070588
0.133333 0.223529 0.070588
0.149020 0.219608 0.070588
0.180392 0.231373 0.070588
0.215686 0.231373 0.070588
0.243137 0.227451 0.074510
0.282353 0.227451 0.062745
0.345098 0.231373 0.062745
0.376471 0.231373 0.070588
0.403922 0.211765 0.078431
0.431373 0.211765 0.090196
0.470588 0.223529 0.101961
0.529412 0.227451 0.090196
0.564706 0.239216 0.086275
0.549020 0.227451 0.086275
0.572549 0.215686 0.082353
0.698039 0.168627 0.062745
0.741176 0.145098 0.054902
0.741176 0.145098 0.054902
0.749020 0.152941 0.058824
0.756863 0.188235 0.074510
0.811765 0.317647 0.141176
0.835294 0.345098 0.160784
0.831373 0.266667 0.156863
0.827451 0.247059 0.160784
0.827451 0.247059 0.160784
0.827451 0.247059 0.160784
0.827451 0.247059 0.160784
0.827451 0.247059 0.160784
0.827451 0.247059 0.160784
0.827451 0.247059 0.160784
0.827451 0.247059 0.160784
0.156863 0.270588 0.074510
0.164706 0.274510 0.070588
0.172549 0.274510 0.070588
0.168627 0.278431 0.074510
0.180392 0.282353 0.078431
0.180392 0.286275 0.082353
0.200000 0.294118 0.086275
0.250980 0.294118 0.078431
0.345098 0.282353 0.082353
0.407843 0.278431 0.074510
0.443137 0.270588 0.090196
0.458824 0.262745 0.101961
0.486275 0.258824 0.101961
0.552941 0.274510 0.098039
0.592157 0.274510 0.090196
0.580392 0.258824 0.086275
0.580392 0.247059 0.090196
0.690196 0.203922 0.078431
0.756863 0.211765 0.078431
0.768627 0.231373 0.090196
0.788235 0.305882 0.113725
0.803922 0.325490 0.129412
0.831373 0.349020 0.152941
0.835294 0.352941 0.156863
0.835294 0.329412 0.156863
0.835294 0.250980 0.164706
0.827451 0.247059 0.160784
0.827451 0.247059 0.160784
0.827451 0.247059 0.160784
0.827451 0.247059 0.160784
0.827451 0.247059 0.160784
0.827451 0.247059 0.160784
0.827451 0.247059 0.160784
0.196078 0.321569 0.090196
0.196078 0.321569 0.090196
0.196078 0.321569 0.090196
0.211765 0.325490 0.086275
0.223529 0.325490 0.090196
0.239216 0.333333 0.090196
0.258824 0.333333 0.082353
0.282353 0.341176 0.086275
0.313726 0.337255 0.082353
0.372549 0.329412 0.086275
0.454902 0.305882 0.090196
0.478431 0.298039 0.098039
0.556863 0.313726 0.098039
0.600000 0.325490 0.105882
0.607843 0.325490 0.090196
0.615686 0.321569 0.101961
0.623529 0.337255 0.113725
0.705882 0.341176 0.125490
0.784314 0.333333 0.133333
0.792157 0.333333 0.129412
0.800000 0.337255 0.133333
0.811765 0.341176 0.141176
0.835294 0.352941 0.156863
0.839216 0.360784 0.149020
0.835294 0.364706 0.141176
0.831373 0.278431 0.152941
0.835294 0.250980 0.164706
0.827451 0.247059 0.160784
0.827451 0.247059 0.160784
0.827451 0.247059 0.160784
0.827451 0.247059 0.160784
0.827451 0.247059 0.160784
0.827451 0.247059 0.160784
0.227451 0.368627 0.090196
0.227451 0.380392 0.098039
0.231373 0.372549 0.094118
0.235294 0.376471 0.098039
0.243137 0.376471 0.098039
0.247059 0.380392 0.090196
0.247059 0.388235 0.098039
0.266667 0.392157 0.105882
0.301961 0.388235 0.098039
0.372549 0.384314 0.105882
0.439216 0.372549 0.109804
0.466667 0.368627 0.105882
0.552941 0.345098 0.117647
0.607843 0.337255 0.105882
0.623529 0.341176 0.105882
0.627451 0.345098 0.113725
0.635294 0.352941 0.129412
0.698039 0.345098 0.133333
0.780392 0.337255 0.133333
0.800000 0.337255 0.133333
0.800000 0.337255 0.133333
0.823529 0.349020 0.149020
0.831373 0.364706 0.149020
0.827451 0.368627 0.141176
0.827451 0.376471 0.133333
0.827451 0.368627 0.129412
0.827451 0.282353 0.152941
0.827451 0.247059 0.160784
0.827451 0.247059 0.160784
0.827451 0.247059 0.160784
0.827451 0.247059 0.160784
0.827451 0.247059 0.160784
0.835294 0.250980 0.164706
0.247059 0.423529 0.121569
0.247059 0.423529 0.121569
0.254902 0.427451 0.113725
0.250980 0.427451 0.125490
0.258824 0.431373 0.117647
0.254902 0.431373 0.129412
0.266667 0.435294 0.133333
0.282353 0.443137 0.141176
0.309804 0.439216 0.133333
0.356863 0.423529 0.129412
0.400000 0.411765 0.125490
0.439216 0.403922 0.113725
0.474510 0.407843 0.105882
0.611765 0.403922 0.117647
0.682353 0.400000 0.133333
0.686275 0.396078 0.133333
0.666667 0.388235 0.133333
0.682353 0.384314 0.137255
0.764706 0.360784 0.133333
0.788235 0.352941 0.133333
0.803922 0.356863 0.141176
0.827451 0.368627 0.141176
0.827451 0.376471 0.133333
0.827451 0.376471 0.133333
0.827451 0.376471 0.133333
0.827451 0.376471 0.133333
0.823529 0.372549 0.129412
0.827451 0.290196 0.156863
0.831373 0.258824 0.160784
0.843137 0.298039 0.172549
0.850980 0.321569 0.176471
0.866667 0.388235 0.188235
0.898039 0.513726 0.227451
0.258824 0.419608 0.062745
0.262745 0.423529 0.070588
0.262745 0.423529 0.070588
0.262745 0.423529 0.070588
0.262745 0.423529 0.070588
0.274510 0.423529 0.070588
0.274510 0.423529 0.070588
0.274510 0.427451 0.086275
0.274510 0.427451 0.086275
0.286275 0.427451 0.090196
0.333333 0.427451 0.101961
0.400000 0.427451 0.098039
0.439216 0.423529 0.098039
0.509804 0.423529 0.109804
0.654902 0.411765 0.133333
0.690196 0.411765 0.137255
0.686275 0.431373 0.141176
0.690196 0.439216 0.141176
0.749020 0.450980 0.141176
0.807843 0.458824 0.141176
0.811765 0.458824 0.141176
0.803922 0.411765 0.137255
0.807843 0.392157 0.129412
0.819608 0.384314 0.133333
0.823529 0.384314 0.133333
0.823529 0.384314 0.133333
0.823529 0.384314 0.133333
0.874510 0.470588 0.196078
0.905882 0.529412 0.235294
0.905882 0.529412 0.235294
0.901961 0.533333 0.235294
0.901961 0.533333 0.235294
0.901961 0.533333 0.235294
0.258824 0.419608 0.062745
0.258824 0.419608 0.062745
0.258824 0.419608 0.062745
0.258824 0.419608 0.062745
0.258824 0.419608 0.062745
0.258824 0.419608 0.062745
0.262745 0.423529 0.070588
0.262745 0.423529 0.070588
0.274510 0.427451 0.074510
0.282353 0.431373 0.078431
0.309804 0.443137 0.098039
0.349020 0.454902 0.105882
0.407843 0.458824 0.113725
0.450980 0.450980 0.113725
0.596078 0.431373 0.125490
0.662745 0.447059 0.141176
0.666667 0.450980 0.149020
0.709804 0.454902 0.149020
0.780392 0.462745 0.141176
0.803922 0.466667 0.145098
0.803922 0.466667 0.145098
0.776471 0.450980 0.141176
0.756863 0.427451 0.141176
0.756863 0.419608 0.141176
0.784314 0.411765 0.137255
0.796078 0.415686 0.145098
0.890196 0.517647 0.227451
0.901961 0.533333 0.235294
0.901961 0.533333 0.235294
0.901961 0.533333 0.235294
0.901961 0.533333 0.235294
0.901961 0.533333 0.235294
0.901961 0.533333 0.235294
0.262745 0.423529 0.070588
0.262745 0.423529 0.070588
0.262745 0.423529 0.070588
0.262745 0.423529 0.070588
0.278431 0.427451 0.062745
0.282353 0.431373 0.066667
0.294118 0.443137 0.082353
0.325490 0.454902 0.090196
0.360784 0.470588 0.113725
0.392157 0.486275 0.113725
0.403922 0.494118 0.121569
0.419608 0.498039 0.113725
0.423529 0.501961 0.121569
0.427451 0.498039 0.121569
0.486275 0.501961 0.129412
0.600000 0.494118 0.137255
0.623529 0.490196 0.133333
0.639216 0.490196 0.141176
0.721569 0.486275 0.129412
0.764706 0.486275 0.125490
0.749020 0.486275 0.117647
0.745098 0.474510 0.121569
0.741176 0.450980 0.137255
0.745098 0.443137 0.145098
0.760784 0.454902 0.156863
0.827451 0.494118 0.203922
0.894118 0.529412 0.231373
0.901961 0.533333 0.235294
0.901961 0.533333 0.235294
0.901961 0.533333 0.235294
0.901961 0.533333 0.235294
0.901961 0.533333 0.235294
0.901961 0.533333 0.235294
0.388235 0.482353 0.105882
0.388235 0.482353 0.105882
0.396078 0.486275 0.113725
0.396078 0.486275 0.113725
0.403922 0.494118 0.121569
0.419608 0.498039 0.113725
0.419608 0.498039 0.113725
0.423529 0.501961 0.121569
0.423529 0.501961 0.121569
0.427451 0.505882 0.125490
0.427451 0.505882 0.125490
0.427451 0.505882 0.125490
0.431373 0.509804 0.129412
0.439216 0.517647 0.137255
0.490196 0.521569 0.133333
0.572549 0.513726 0.133333
0.607843 0.513726 0.133333
0.643137 0.521569 0.152941
0.690196 0.525490 0.152941
0.717647 0.509804 0.117647
0.721569 0.498039 0.113725
0.729412 0.498039 0.101961
0.756863 0.505882 0.133333
0.780392 0.513726 0.160784
0.796078 0.517647 0.180392
0.850980 0.521569 0.211765
0.901961 0.533333 0.235294
0.901961 0.533333 0.235294
0.901961 0.533333 0.235294
0.901961 0.533333 0.235294
0.901961 0.533333 0.235294
0.901961 0.533333 0.235294
0.901961 0.533333 0.235294
0.443137 0.529412 0.156863
0.443137 0.529412 0.156863
0.439216 0.525490 0.152941
0.443137 0.541176 0.164706
0.443137 0.541176 0.164706
0.454902 0.552941 0.176471
0.443137 0.541176 0.164706
0.447059 0.552941 0.176471
0.458824 0.564706 0.200000
0.458824 0.576471 0.203922
0.470588 0.588235 0.215686
0.474510 0.592157 0.223529
0.478431 0.596078 0.223529
0.490196 0.607843 0.235294
0.513726 0.576471 0.192157
0.560784 0.549020 0.156863
0.631373 0.556863 0.172549
0.698039 0.584314 0.203922
0.721569 0.592157 0.207843
0.729412 0.592157 0.200000
0.741176 0.568627 0.168627
0.764706 0.560784 0.168627
0.788235 0.541176 0.168627
0.792157 0.537255 0.168627
0.792157 0.537255 0.168627
0.807843 0.537255 0.184314
0.901961 0.533333 0.235294
0.901961 0.533333 0.235294
0.901961 0.533333 0.235294
0.901961 0.533333 0.235294
0.901961 0.533333 0.235294
0.901961 0.533333 0.235294
0.901961 0.533333 0.235294
0.494118 0.631373 0.262745
0.490196 0.627451 0.258824
0.490196 0.627451 0.258824
0.490196 0.635294 0.266667
0.486275 0.631373 0.262745
0.490196 0.635294 0.266667
0.490196 0.635294 0.266667
0.490196 0.635294 0.266667
0.498039 0.639216 0.270588
0.490196 0.635294 0.266667
0.498039 0.639216 0.270588
0.498039 0.639216 0.262745
0.498039 0.639216 0.254902
0.509804 0.639216 0.239216
0.521569 0.627451 0.211765
0.533333 0.619608 0.200000
0.631373 0.603922 0.203922
0.713726 0.607843 0.223529
0.741176 0.627451 0.235294
0.768627 0.647059 0.235294
0.776471 0.654902 0.235294
0.772549 0.650980 0.231373
0.772549 0.619608 0.211765
0.768627 0.592157 0.184314
0.764706 0.596078 0.184314
0.776471 0.596078 0.188235
0.800000 0.592157 0.203922
0.894118 0.537255 0.227451
0.901961 0.533333 0.235294
0.901961 0.533333 0.235294
0.905882 0.552941 0.239216
0.905882 0.603922 0.250980
0.905882 0.654902 0.250980
0.505882 0.647059 0.258824
0.505882 0.647059 0.258824
0.505882 0.643137 0.243137
0.505882 0.643137 0.243137
0.505882 0.643137 0.243137
0.501961 0.639216 0.239216
0.505882 0.639216 0.227451
0.505882 0.639216 0.219608
0.505882 0.639216 0.219608
0.505882 0.639216 0.219608
0.517647 0.639216 0.211765
0.517647 0.639216 0.211765
0.517647 0.639216 0.211765
0.517647 0.639216 0.211765
0.517647 0.639216 0.211765
0.517647 0.639216 0.211765
0.521569 0.643137 0.215686
0.549020 0.647059 0.223529
0.733333 0.658824 0.243137
0.780392 0.666667 0.250980
0.776471 0.658824 0.239216
0.776471 0.654902 0.235294
0.768627 0.623529 0.203922
0.772549 0.615686 0.200000
0.768627 0.623529 0.203922
0.780392 0.631373 0.200000
0.807843 0.647059 0.211765
0.839216 0.635294 0.203922
0.874510 0.639216 0.231373
0.905882 0.662745 0.254902
0.909804 0.666667 0.258824
0.909804 0.666667 0.258824
0.909804 0.666667 0.258824
0.517647 0.639216 0.211765
0.517647 0.639216 0.211765
0.517647 0.639216 0.211765
0.517647 0.639216 0.211765
0.517647 0.639216 0.211765
0.517647 0.639216 0.211765
0.517647 0.639216 0.211765
0.517647 0.639216 0.211765
0.517647 0.639216 0.211765
0.517647 0.639216 0.211765
0.517647 0.639216 0.211765
0.517647 0.639216 0.211765
0.517647 0.639216 0.211765
0.517647 0.639216 0.211765
0.517647 0.639216 0.211765
0.517647 0.639216 0.211765
0.521569 0.643137 0.215686
0.545098 0.650980 0.235294
0.647059 0.678431 0.278431
0.717647 0.674510 0.258824
0.745098 0.654902 0.203922
0.749020 0.647059 0.192157
0.756863 0.650980 0.196078
0.784314 0.662745 0.203922
0.803922 0.682353 0.223529
0.811765 0.690196 0.231373
0.827451 0.678431 0.215686
0.835294 0.654902 0.215686
0.874510 0.650980 0.227451
0.909804 0.666667 0.258824
0.909804 0.666667 0.258824
0.909804 0.666667 0.258824
0.909804 0.666667 0.258824
0.517647 0.639216 0.211765
0.517647 0.639216 0.211765
0.517647 0.639216 0.211765
0.517647 0.639216 0.211765
0.517647 0.639216 0.211765
0.517647 0.639216 0.211765
0.517647 0.639216 0.211765
0.517647 0.639216 0.211765
0.517647 0.639216 0.211765
0.517647 0.639216 0.211765
0.517647 0.639216 0.211765
0.517647 0.639216 0.211765
0.517647 0.639216 0.211765
0.517647 0.639216 0.211765
0.521569 0.643137 0.215686
0.529412 0.647059 0.227451
0.564706 0.662745 0.258824
0.615686 0.686275 0.294118
0.658824 0.694118 0.313726
0.686275 0.690196 0.286275
0.721569 0.658824 0.200000
0.737255 0.650980 0.180392
0.756863 0.670588 0.188235
0.792157 0.701961 0.211765
0.803922 0.709804 0.211765
0.807843 0.705882 0.211765
0.811765 0.701961 0.196078
0.831373 0.682353 0.188235
0.874510 0.662745 0.215686
0.901961 0.670588 0.258824
0.909804 0.666667 0.258824
0.909804 0.666667 0.258824
0.909804 0.666667 0.258824
0.709804 0.772549 0.380392
0.701961 0.764706 0.372549
0.701961 0.764706 0.372549
0.682353 0.752941 0.349020
0.709804 0.772549 0.380392
0.690196 0.760784 0.368627
0.674510 0.745098 0.341176
0.690196 0.756863 0.352941
0.690196 0.756863 0.352941
0.682353 0.752941 0.349020
0.690196 0.760784 0.368627
0.713726 0.776471 0.384314
0.662745 0.741176 0.337255
0.678431 0.749020 0.345098
0.670588 0.741176 0.337255
0.717647 0.772549 0.380392
0.698039 0.752941 0.372549
0.686275 0.729412 0.352941
0.678431 0.717647 0.341176
0.686275 0.694118 0.301961
0.725490 0.666667 0.219608
0.745098 0.666667 0.180392
0.768627 0.698039 0.152941
0.780392 0.717647 0.145098
0.788235 0.717647 0.149020
0.796078 0.713726 0.133333
0.827451 0.709804 0.141176
0.862745 0.694118 0.133333
0.882353 0.686275 0.137255
0.894118 0.682353 0.200000
0.901961 0.674510 0.243137
0.909804 0.678431 0.247059
0.901961 0.674510 0.254902
0.741176 0.792157 0.400000
0.741176 0.792157 0.400000
0.741176 0.792157 0.400000
0.741176 0.792157 0.400000
0.741176 0.792157 0.400000
0.741176 0.792157 0.400000
0.741176 0.792157 0.400000
0.741176 0.792157 0.400000
0.741176 0.792157 0.400000
0.741176 0.792157 0.400000
0.741176 0.792157 0.400000
0.741176 0.792157 0.400000
0.741176 0.792157 0.400000
0.741176 0.792157 0.400000
0.741176 0.792157 0.400000
0.741176 0.792157 0.400000
0.741176 0.792157 0.400000
0.741176 0.792157 0.400000
0.741176 0.792157 0.400000
0.741176 0.792157 0.400000
0.741176 0.780392 0.376471
0.768627 0.725490 0.211765
0.788235 0.721569 0.137255
0.788235 0.721569 0.137255
0.800000 0.717647 0.141176
0.827451 0.709804 0.129412
0.854902 0.698039 0.133333
0.874510 0.690196 0.133333
0.886275 0.690196 0.141176
0.886275 0.698039 0.133333
0.890196 0.764706 0.141176
0.898039 0.776471 0.141176
0.898039 0.776471 0.141176
0.741176 0.792157 0.400000
0.741176 0.792157 0.400000
0.741176 0.792157 0.400000
0.741176 0.792157 0.400000
0.741176 0.792157 0.400000
0.741176 0.792157 0.400000
0.741176 0.792157 0.400000
0.741176 0.792157 0.400000
0.741176 0.792157 0.400000
0.741176 0.792157 0.400000
0.741176 0.792157 0.400000
0.741176 0.792157 0.400000
0.741176 0.792157 0.400000
0.741176 0.792157 0.400000
0.741176 0.792157 0.400000
0.741176 0.792157 0.400000
0.741176 0.792157 0.400000
0.741176 0.792157 0.400000
0.741176 0.792157 0.400000
0.741176 0.792157 0.400000
0.741176 0.792157 0.400000
0.756863 0.788235 0.392157
0.831373 0.756863 0.243137
0.847059 0.752941 0.188235
0.862745 0.749020 0.176471
0.874510 0.749020 0.168627
0.882353 0.737255 0.160784
0.886275 0.721569 0.149020
0.886275 0.717647 0.145098
0.894118 0.749020 0.149020
0.894118 0.780392 0.141176
0.894118 0.780392 0.141176
0.894118 0.780392 0.141176
0.741176 0.792157 0.400000
0.741176 0.792157 0.400000
0.741176 0.792157 0.400000
0.741176 0.792157 0.400000
0.741176 0.792157 0.400000
0.741176 0.792157 0.400000
0.741176 0.792157 0.400000
0.741176 0.792157 0.400000
0.741176 0.792157 0.400000
0.741176 0.792157 0.400000
0.741176 0.792157 0.400000
0.741176 0.792157 0.400000
0.741176 0.792157 0.400000
0.741176 0.792157 0.400000
0.741176 0.792157 0.400000
0.741176 0.792157 0.400000
0.741176 0.792157 0.400000
0.741176 0.792157 0.400000
0.741176 0.792157 0.400000
0.741176 0.792157 0.400000
0.741176 0.792157 0.400000
0.749020 0.788235 0.400000
0.847059 0.780392 0.274510
0.874510 0.780392 0.215686
0.878431 0.780392 0.192157
0.882353 0.776471 0.192157
0.882353 0.776471 0.192157
0.882353 0.776471 0.192157
0.886275 0.776471 0.180392
0.890196 0.780392 0.156863
0.894118 0.780392 0.141176
0.894118 0.780392 0.141176
0.894118 0.780392 0.141176
0.741176 0.792157 0.400000
0.741176 0.792157 0.400000
0.741176 0.792157 0.400000
0.741176 0.792157 0.400000
0.741176 0.792157 0.400000
0.741176 0.792157 0.400000
0.741176 0.792157 0.400000
0.741176 0.792157 0.400000
0.741176 0.792157 0.400000
0.741176 0.792157 0.400000
0.741176 0.792157 0.400000
0.741176 0.792157 0.400000
0.741176 0.792157 0.400000
0.741176 0.792157 0.400000
0.741176 0.792157 0.400000
0.741176 0.792157 0.400000
0.741176 0.792157 0.400000
0.741176 0.792157 0.400000
0.741176 0.792157 0.400000
0.741176 0.792157 0.400000
0.741176 0.792157 0.400000
0.756863 0.792157 0.388235
0.854902 0.815686 0.290196
0.890196 0.827451 0.254902
0.886275 0.803922 0.227451
0.886275 0.803922 0.227451
0.886275 0.792157 0.203922
0.886275 0.792157 0.203922
0.882353 0.788235 0.200000
0.898039 0.784314 0.164706
0.898039 0.784314 0.149020
0.898039 0.784314 0.149020
0.894118 0.780392 0.141176
0.741176 0.792157 0.400000
0.741176 0.792157 0.400000
0.741176 0.792157 0.400000
0.741176 0.792157 0.400000
0.741176 0.792157 0.400000
0.741176 0.792157 0.400000
0.741176 0.792157 0.400000
0.741176 0.792157 0.400000
0.741176 0.792157 0.400000
0.741176 0.792157 0.400000
0.741176 0.792157 0.400000
0.741176 0.792157 0.400000
0.741176 0.792157 0.400000
0.741176 0.792157 0.400000
0.741176 0.792157 0.400000
0.741176 0.792157 0.400000
0.741176 0.792157 0.400000
0.741176 0.792157 0.400000
0.741176 0.792157 0.400000
0.745098 0.796078 0.403922
0.768627 0.803922 0.380392
0.890196 0.866667 0.282353
0.901961 0.870588 0.278431
0.901961 0.862745 0.286275
0.901961 0.862745 0.294118
0.898039 0.858824 0.290196
