Project_Web/PythonScripts/LUT_files/LUT2.cube
TITLE "OT color transfer form small selected dataset"
LUT_3D_SIZE 9
DOMAIN_MIN 0.0 0.0 0.0
DOMAIN_MAX 1.0 1.0 1.0
0.023529 0.027451 0.027451
0.113725 0.043137 0.039216
0.235294 0.031373 0.027451
0.400000 0.074510 0.050980
0.533333 0.101961 0.039216
0.549020 0.101961 0.039216
0.827451 0.247059 0.160784
0.827451 0.247059 0.160784
0.827451 0.247059 0.160784
0.050980 0.105882 0.058824
0.094118 0.113725 0.066667
0.266667 0.109804 0.062745
0.407843 0.101961 0.066667
0.541176 0.098039 0.035294
0.717647 0.133333 0.058824
0.827451 0.247059 0.160784
0.827451 0.247059 0.160784
0.827451 0.247059 0.160784
0.156863 0.270588 0.074510
0.180392 0.282353 0.078431
0.345098 0.282353 0.082353
0.486275 0.258824 0.101961
0.580392 0.247059 0.090196
0.788235 0.305882 0.113725
0.835294 0.329412 0.156863
0.827451 0.247059 0.160784
0.827451 0.247059 0.160784
0.258824 0.419608 0.062745
0.262745 0.423529 0.070588
0.274510 0.427451 0.086275
0.439216 0.423529 0.098039
0.686275 0.431373 0.141176
0.811765 0.458824 0.141176
0.823529 0.384314 0.133333
0.905882 0.529412 0.235294
0.901961 0.533333 0.235294
0.443137 0.529412 0.156863
0.443137 0.541176 0.164706
0.458824 0.564706 0.200000
0.478431 0.596078 0.223529
0.631373 0.556863 0.172549
0.741176 0.568627 0.168627
0.792157 0.537255 0.168627
0.901961 0.533333 0.235294
0.901961 0.533333 0.235294
0.517647 0.639216 0.211765
0.517647 0.639216 0.211765
0.517647 0.639216 0.211765
0.517647 0.639216 0.211765
0.564706 0.662745 0.258824
0.721569 0.658824 0.200000
0.803922 0.709804 0.211765
0.874510 0.662745 0.215686
0.909804 0.666667 0.258824
0.741176 0.792157 0.400000
0.741176 0.792157 0.400000
0.741176 0.792157 0.400000
0.741176 0.792157 0.400000
0.741176 0.792157 0.400000
0.741176 0.792157 0.400000
0.878431 0.780392 0.192157
0.886275 0.776471 0.180392
0.894118 0.780392 0.141176
0.745098 0.796078 0.396078
0.784314 0.815686 0.372549
0.866667 0.854902 0.301961
0.913725 0.882353 0.247059
0.913725 0.882353 0.247059
0.913725 0.882353 0.247059
0.913725 0.882353 0.247059
0.917647 0.898039 0.352941
0.937255 0.921569 0.403922
0.913725 0.882353 0.247059
0.913725 0.882353 0.247059
0.913725 0.882353 0.247059
0.913725 0.882353 0.247059
0.913725 0.882353 0.247059
0.913725 0.882353 0.247059
0.913725 0.882353 0.247059
0.921569 0.894118 0.278431
0.937255 0.921569 0.403922
0.050980 0.054902 0.109804
0.098039 0.062745 0.113725
0.239216 0.039216 0.054902
0.349020 0.098039 0.094118
0.537255 0.129412 0.094118
0.670588 0.176471 0.109804
0.749020 0.207843 0.176471
0.827451 0.247059 0.160784
0.827451 0.247059 0.160784
0.078431 0.101961 0.098039
0.113725 0.113725 0.105882
0.247059 0.117647 0.098039
0.376471 0.133333 0.105882
0.509804 0.137255 0.109804
0.682353 0.168627 0.113725
0.772549 0.231373 0.180392
0.827451 0.247059 0.160784
0.827451 0.247059 0.160784
0.180392 0.247059 0.121569
0.203922 0.250980 0.141176
0.313726 0.270588 0.152941
0.447059 0.254902 0.145098
0.619608 0.247059 0.133333
0.772549 0.211765 0.105882
0.835294 0.337255 0.164706
0.827451 0.247059 0.160784
0.827451 0.247059 0.160784
0.301961 0.454902 0.180392
0.309804 0.454902 0.180392
0.333333 0.454902 0.192157
0.470588 0.447059 0.188235
0.650980 0.419608 0.176471
0.721569 0.407843 0.172549
0.823529 0.384314 0.133333
0.894118 0.490196 0.219608
0.901961 0.533333 0.235294
0.454902 0.576471 0.223529
0.474510 0.600000 0.247059
0.482353 0.607843 0.254902
0.501961 0.631373 0.274510
0.576471 0.545098 0.156863
0.729412 0.549020 0.200000
0.796078 0.525490 0.180392
0.901961 0.533333 0.235294
0.901961 0.533333 0.235294
0.517647 0.639216 0.211765
0.517647 0.639216 0.211765
0.517647 0.639216 0.211765
0.517647 0.639216 0.211765
0.580392 0.670588 0.266667
0.713726 0.670588 0.235294
0.803922 0.698039 0.223529
0.866667 0.643137 0.219608
0.909804 0.666667 0.258824
0.741176 0.792157 0.400000
0.741176 0.792157 0.400000
0.741176 0.792157 0.400000
0.741176 0.792157 0.400000
0.741176 0.792157 0.400000
0.741176 0.792157 0.400000
0.870588 0.776471 0.223529
0.882353 0.776471 0.192157
0.894118 0.780392 0.141176
0.752941 0.800000 0.392157
0.760784 0.800000 0.392157
0.815686 0.827451 0.345098
0.905882 0.886275 0.247059
0.913725 0.882353 0.247059
0.913725 0.882353 0.247059
0.913725 0.882353 0.247059
0.917647 0.890196 0.349020
0.937255 0.921569 0.403922
0.913725 0.882353 0.247059
0.913725 0.882353 0.247059
0.913725 0.882353 0.247059
0.913725 0.882353 0.247059
0.913725 0.882353 0.247059
0.913725 0.882353 0.247059
0.913725 0.882353 0.247059
0.921569 0.898039 0.313726
0.937255 0.921569 0.403922
0.019608 0.082353 0.227451
0.019608 0.082353 0.227451
0.345098 0.105882 0.184314
0.345098 0.105882 0.184314
0.541176 0.145098 0.105882
0.686275 0.180392 0.121569
0.749020 0.207843 0.176471
0.788235 0.278431 0.239216
0.827451 0.247059 0.160784
0.101961 0.090196 0.172549
0.117647 0.098039 0.184314
0.321569 0.109804 0.180392
0.411765 0.152941 0.215686
0.498039 0.172549 0.156863
0.717647 0.192157 0.152941
0.752941 0.223529 0.192157
0.796078 0.274510 0.227451
0.827451 0.247059 0.160784
0.184314 0.239216 0.215686
0.200000 0.239216 0.223529
0.282353 0.258824 0.243137
0.443137 0.258824 0.219608
0.592157 0.274510 0.223529
0.800000 0.270588 0.184314
0.776471 0.290196 0.270588
0.823529 0.250980 0.164706
0.827451 0.247059 0.160784
0.282353 0.396078 0.254902
0.298039 0.407843 0.258824
0.364706 0.423529 0.278431
0.458824 0.423529 0.290196
0.568627 0.403922 0.266667
0.678431 0.403922 0.239216
0.847059 0.400000 0.211765
0.854902 0.498039 0.317647
0.898039 0.513726 0.235294
0.450980 0.576471 0.329412
0.450980 0.576471 0.321569
0.474510 0.592157 0.337255
0.509804 0.607843 0.352941
0.650980 0.611765 0.360784
0.705882 0.541176 0.305882
0.788235 0.494118 0.235294
0.882353 0.552941 0.282353
0.901961 0.533333 0.235294
0.517647 0.670588 0.360784
0.521569 0.662745 0.349020
0.529412 0.650980 0.313726
0.545098 0.654902 0.301961
0.588235 0.686275 0.333333
0.713726 0.682353 0.333333
0.815686 0.658824 0.329412
0.878431 0.627451 0.262745
0.909804 0.666667 0.258824
0.741176 0.792157 0.400000
0.741176 0.792157 0.400000
0.741176 0.792157 0.400000
0.741176 0.792157 0.400000
0.741176 0.792157 0.400000
0.749020 0.784314 0.396078
0.839216 0.764706 0.317647
0.874510 0.764706 0.270588
0.898039 0.788235 0.262745
0.741176 0.792157 0.400000
0.741176 0.792157 0.400000
0.745098 0.796078 0.396078
0.894118 0.878431 0.258824
0.913725 0.882353 0.247059
0.913725 0.882353 0.247059
0.913725 0.882353 0.247059
0.913725 0.898039 0.364706
0.925490 0.909804 0.403922
0.913725 0.882353 0.247059
0.913725 0.882353 0.247059
0.913725 0.882353 0.247059
0.913725 0.882353 0.247059
0.913725 0.882353 0.247059
0.913725 0.882353 0.247059
0.913725 0.882353 0.247059
0.925490 0.905882 0.352941
0.937255 0.921569 0.403922
0.019608 0.082353 0.227451
0.039216 0.090196 0.227451
0.470588 0.203922 0.388235
0.458824 0.188235 0.345098
0.713726 0.286275 0.360784
0.745098 0.301961 0.372549
0.949020 0.345098 0.388235
0.866667 0.313726 0.325490
0.788235 0.278431 0.250980
0.058824 0.133333 0.282353
0.058824 0.133333 0.282353
0.411765 0.176471 0.329412
0.407843 0.152941 0.231373
0.725490 0.294118 0.368627
0.772549 0.305882 0.372549
0.949020 0.345098 0.388235
0.776471 0.290196 0.270588
0.792157 0.274510 0.231373
0.168627 0.243137 0.341176
0.184314 0.258824 0.356863
0.250980 0.270588 0.360784
0.415686 0.282353 0.352941
0.670588 0.286275 0.313726
0.729412 0.290196 0.266667
0.792157 0.298039 0.290196
0.776471 0.290196 0.270588
0.827451 0.258824 0.168627
0.286275 0.403922 0.372549
0.298039 0.396078 0.368627
0.341176 0.411765 0.388235
0.458824 0.435294 0.392157
0.568627 0.423529 0.372549
0.733333 0.443137 0.368627
0.847059 0.423529 0.415686
0.850980 0.443137 0.411765
0.886275 0.568627 0.380392
0.341176 0.686275 0.603922
0.360784 0.666667 0.572549
0.392157 0.603922 0.478431
0.474510 0.560784 0.415686
0.580392 0.556863 0.411765
0.713726 0.568627 0.400000
0.796078 0.549020 0.360784
0.882353 0.572549 0.380392
0.882353 0.572549 0.380392
0.603922 0.713726 0.474510
0.603922 0.713726 0.474510
0.600000 0.709804 0.470588
0.603922 0.698039 0.454902
0.623529 0.694118 0.439216
0.713726 0.705882 0.478431
0.811765 0.662745 0.419608
0.905882 0.690196 0.450980
0.952941 0.686275 0.435294
0.741176 0.792157 0.400000
0.741176 0.792157 0.400000
0.741176 0.792157 0.400000
0.733333 0.788235 0.403922
0.682353 0.749020 0.415686
0.694118 0.749020 0.407843
0.807843 0.780392 0.427451
0.854902 0.792157 0.392157
0.945098 0.776471 0.427451
0.741176 0.792157 0.400000
0.741176 0.792157 0.400000
0.741176 0.792157 0.400000
0.772549 0.807843 0.384314
0.913725 0.882353 0.247059
0.913725 0.882353 0.247059
0.905882 0.878431 0.349020
0.882353 0.874510 0.490196
0.894118 0.862745 0.400000
0.913725 0.882353 0.247059
0.913725 0.882353 0.247059
0.913725 0.882353 0.247059
0.913725 0.882353 0.247059
0.913725 0.882353 0.247059
0.913725 0.882353 0.247059
0.913725 0.882353 0.247059
0.937255 0.921569 0.403922
0.937255 0.921569 0.403922
0.533333 0.239216 0.462745
0.533333 0.239216 0.462745
0.533333 0.239216 0.462745
0.533333 0.239216 0.462745
0.737255 0.298039 0.368627
0.745098 0.301961 0.372549
0.949020 0.345098 0.388235
0.949020 0.345098 0.388235
0.913725 0.419608 0.517647
0.533333 0.239216 0.462745
0.533333 0.239216 0.462745
0.533333 0.239216 0.462745
0.533333 0.239216 0.462745
0.737255 0.298039 0.368627
0.752941 0.301961 0.376471
0.949020 0.345098 0.388235
0.949020 0.345098 0.388235
0.882353 0.447059 0.588235
0.411765 0.313726 0.466667
0.482353 0.341176 0.478431
0.666667 0.384314 0.509804
0.745098 0.392157 0.509804
0.745098 0.305882 0.380392
0.843137 0.360784 0.490196
0.949020 0.345098 0.388235
0.913725 0.419608 0.517647
0.878431 0.447059 0.560784
0.219608 0.494118 0.501961
0.247059 0.486275 0.505882
0.329412 0.466667 0.533333
0.513726 0.498039 0.525490
0.725490 0.505882 0.509804
0.780392 0.458824 0.486275
0.847059 0.423529 0.423529
0.847059 0.423529 0.423529
0.878431 0.537255 0.396078
0.325490 0.694118 0.611765
0.333333 0.690196 0.607843
0.368627 0.631373 0.572549
0.494118 0.568627 0.529412
0.631373 0.607843 0.529412
0.749020 0.607843 0.517647
0.800000 0.564706 0.545098
0.909804 0.556863 0.584314
0.905882 0.564706 0.490196
0.329412 0.694118 0.619608
0.329412 0.694118 0.619608
0.329412 0.694118 0.619608
0.388235 0.686275 0.600000
0.603922 0.674510 0.537255
0.705882 0.682353 0.533333
0.800000 0.690196 0.521569
0.886275 0.678431 0.513726
0.960784 0.717647 0.482353
0.654902 0.745098 0.431373
0.662745 0.749020 0.443137
0.674510 0.752941 0.454902
0.690196 0.749020 0.490196
0.698039 0.752941 0.505882
0.698039 0.752941 0.505882
0.835294 0.792157 0.549020
0.878431 0.788235 0.537255
0.898039 0.784314 0.505882
0.741176 0.792157 0.400000
0.741176 0.792157 0.400000
0.745098 0.796078 0.427451
0.768627 0.807843 0.513726
0.768627 0.811765 0.533333
0.768627 0.811765 0.525490
0.866667 0.866667 0.505882
0.882353 0.870588 0.505882
0.905882 0.870588 0.607843
0.913725 0.882353 0.247059
0.913725 0.882353 0.247059
0.913725 0.882353 0.247059
0.913725 0.882353 0.247059
0.913725 0.882353 0.247059
0.913725 0.882353 0.247059
0.917647 0.886275 0.262745
0.929412 0.921569 0.643137
0.929412 0.917647 0.592157
0.533333 0.239216 0.462745
0.533333 0.239216 0.462745
0.549020 0.250980 0.470588
0.831373 0.431373 0.623529
0.831373 0.431373 0.623529
0.803922 0.392157 0.584314
0.909804 0.360784 0.447059
0.929412 0.388235 0.458824
0.890196 0.450980 0.592157
0.533333 0.239216 0.462745
0.533333 0.239216 0.462745
0.705882 0.352941 0.556863
0.831373 0.431373 0.623529
0.831373 0.431373 0.623529
0.803922 0.392157 0.584314
0.878431 0.372549 0.490196
0.886275 0.447059 0.580392
0.890196 0.450980 0.592157
0.729412 0.360784 0.537255
0.776471 0.400000 0.560784
0.819608 0.435294 0.611765
0.827451 0.435294 0.623529
0.803922 0.392157 0.584314
0.803922 0.392157 0.584314
0.858824 0.407843 0.560784
0.890196 0.450980 0.592157
0.890196 0.450980 0.592157
0.301961 0.494118 0.647059
0.352941 0.513726 0.658824
0.482353 0.568627 0.686275
0.596078 0.615686 0.709804
0.784314 0.568627 0.631373
0.847059 0.533333 0.635294
0.882353 0.454902 0.592157
0.890196 0.450980 0.592157
0.890196 0.450980 0.592157
0.207843 0.627451 0.674510
0.231373 0.662745 0.709804
0.301961 0.682353 0.721569
0.541176 0.650980 0.678431
0.654902 0.654902 0.654902
0.862745 0.705882 0.639216
0.894118 0.701961 0.623529
0.909804 0.556863 0.584314
0.909804 0.556863 0.584314
0.329412 0.694118 0.619608
0.329412 0.694118 0.619608
0.329412 0.694118 0.619608
0.396078 0.690196 0.623529
0.666667 0.694118 0.643137
0.737255 0.713726 0.658824
0.831373 0.713726 0.643137
0.850980 0.698039 0.662745
0.870588 0.701961 0.662745
0.329412 0.694118 0.619608
0.329412 0.694118 0.619608
0.505882 0.713726 0.607843
0.654902 0.729412 0.588235
0.654902 0.729412 0.588235
0.678431 0.741176 0.603922
0.831373 0.792157 0.650980
0.894118 0.800000 0.650980
0.949020 0.768627 0.564706
0.784314 0.858824 0.690196
0.784314 0.858824 0.690196
0.784314 0.858824 0.690196
0.784314 0.858824 0.690196
0.784314 0.858824 0.690196
0.784314 0.858824 0.690196
0.800000 0.862745 0.686275
0.882353 0.890196 0.709804
0.929412 0.882353 0.701961
0.913725 0.882353 0.247059
0.913725 0.882353 0.247059
0.913725 0.882353 0.247059
0.913725 0.882353 0.258824
0.925490 0.905882 0.521569
0.925490 0.921569 0.658824
0.925490 0.921569 0.658824
0.925490 0.921569 0.658824
0.925490 0.921569 0.658824
0.831373 0.431373 0.623529
0.831373 0.431373 0.623529
0.831373 0.431373 0.623529
0.831373 0.431373 0.623529
0.831373 0.431373 0.623529
0.803922 0.392157 0.584314
0.803922 0.392157 0.584314
0.890196 0.450980 0.592157
0.890196 0.450980 0.592157
0.831373 0.431373 0.623529
0.831373 0.431373 0.623529
0.831373 0.431373 0.623529
0.831373 0.431373 0.623529
0.831373 0.431373 0.623529
0.803922 0.392157 0.584314
0.803922 0.392157 0.584314
0.890196 0.450980 0.592157
0.890196 0.450980 0.592157
0.831373 0.431373 0.623529
0.831373 0.431373 0.623529
0.831373 0.431373 0.623529
0.831373 0.431373 0.623529
0.831373 0.431373 0.623529
0.803922 0.392157 0.584314
0.803922 0.392157 0.584314
0.890196 0.450980 0.592157
0.890196 0.450980 0.592157
0.725490 0.686275 0.733333
0.745098 0.701961 0.745098
0.811765 0.756863 0.760784
0.843137 0.780392 0.772549
0.800000 0.521569 0.635294
0.807843 0.403922 0.592157
0.890196 0.450980 0.592157
0.890196 0.450980 0.592157
0.890196 0.450980 0.592157
0.450980 0.643137 0.780392
0.462745 0.647059 0.776471
0.498039 0.662745 0.792157
0.600000 0.705882 0.800000
0.776471 0.760784 0.788235
0.878431 0.698039 0.752941
0.890196 0.698039 0.756863
0.913725 0.764706 0.772549
0.909804 0.729412 0.741176
0.415686 0.784314 0.811765
0.415686 0.784314 0.811765
0.411765 0.780392 0.803922
0.466667 0.760784 0.796078
0.650980 0.737255 0.780392
0.745098 0.752941 0.764706
0.878431 0.807843 0.776471
0.882353 0.800000 0.764706
0.862745 0.709804 0.682353
0.450980 0.807843 0.827451
0.450980 0.807843 0.827451
0.450980 0.807843 0.827451
0.450980 0.807843 0.827451
0.470588 0.807843 0.819608
0.764706 0.803922 0.772549
0.827451 0.815686 0.772549
0.874510 0.823529 0.764706
0.925490 0.811765 0.733333
0.725490 0.866667 0.800000
0.725490 0.866667 0.800000
0.760784 0.854902 0.733333
0.784314 0.858824 0.713726
0.788235 0.862745 0.709804
0.788235 0.870588 0.741176
0.870588 0.870588 0.760784
0.917647 0.878431 0.776471
0.937255 0.894118 0.776471
0.784314 0.858824 0.690196
0.784314 0.858824 0.690196
0.784314 0.858824 0.690196
0.784314 0.858824 0.690196
0.807843 0.870588 0.698039
0.901961 0.909804 0.698039
0.929412 0.925490 0.690196
0.949020 0.949020 0.756863
0.949020 0.964706 0.807843
0.831373 0.431373 0.623529
0.831373 0.431373 0.623529
0.831373 0.431373 0.623529
0.831373 0.431373 0.623529
0.831373 0.431373 0.623529
0.831373 0.431373 0.623529
0.803922 0.392157 0.584314
0.890196 0.450980 0.592157
0.890196 0.450980 0.592157
0.831373 0.431373 0.623529
0.831373 0.431373 0.623529
0.831373 0.431373 0.623529
0.831373 0.431373 0.623529
0.831373 0.431373 0.623529
0.815686 0.415686 0.600000
0.803922 0.392157 0.584314
0.890196 0.450980 0.592157
0.890196 0.450980 0.592157
0.831373 0.431373 0.623529
0.831373 0.431373 0.623529
0.831373 0.431373 0.623529
0.831373 0.431373 0.623529
0.831373 0.431373 0.623529
0.803922 0.392157 0.584314
0.803922 0.392157 0.584314
0.890196 0.450980 0.592157
0.890196 0.450980 0.592157
0.831373 0.435294 0.615686
0.831373 0.435294 0.615686
0.839216 0.505882 0.658824
0.839216 0.815686 0.862745
0.835294 0.796078 0.843137
0.807843 0.403922 0.592157
0.882353 0.454902 0.592157
0.890196 0.450980 0.592157
0.890196 0.450980 0.592157
0.776471 0.811765 0.866667
0.764706 0.800000 0.862745
0.780392 0.815686 0.870588
0.756863 0.803922 0.862745
0.827451 0.827451 0.866667
0.886275 0.698039 0.764706
0.882353 0.694118 0.752941
0.913725 0.764706 0.772549
0.909804 0.768627 0.776471
0.509804 0.721569 0.843137
0.513726 0.725490 0.847059
0.541176 0.737255 0.850980
0.564706 0.752941 0.862745
0.619608 0.780392 0.870588
0.803922 0.811765 0.839216
0.909804 0.776471 0.780392
0.913725 0.803922 0.792157
0.945098 0.850980 0.843137
0.450980 0.807843 0.827451
0.450980 0.807843 0.827451
0.450980 0.807843 0.827451
0.466667 0.811765 0.831373
0.654902 0.827451 0.870588
0.760784 0.827451 0.858824
0.815686 0.835294 0.854902
0.917647 0.854902 0.839216
0.949020 0.874510 0.858824
0.600000 0.894118 0.952941
0.600000 0.894118 0.952941
0.600000 0.894118 0.952941
0.600000 0.894118 0.952941
0.690196 0.894118 0.925490
0.807843 0.901961 0.878431
0.854902 0.894118 0.878431
0.898039 0.901961 0.882353
0.921569 0.905882 0.878431
0.741176 0.929412 0.937255
0.733333 0.929412 0.945098
0.741176 0.929412 0.937255
0.749020 0.925490 0.937255
0.776471 0.933333 0.929412
0.858824 0.937255 0.909804
0.913725 0.937255 0.874510
0.941176 0.945098 0.862745
0.949020 0.952941 0.870588
0.831373 0.431373 0.623529
0.831373 0.431373 0.623529
0.831373 0.431373 0.623529
0.831373 0.431373 0.623529
0.831373 0.431373 0.623529
0.831373 0.431373 0.623529
0.803922 0.392157 0.584314
0.882353 0.447059 0.588235
0.890196 0.450980 0.592157
0.831373 0.431373 0.623529
0.831373 0.431373 0.623529
0.831373 0.431373 0.623529
0.831373 0.431373 0.623529
0.831373 0.431373 0.623529
0.831373 0.431373 0.623529
0.803922 0.392157 0.584314
0.890196 0.450980 0.592157
0.890196 0.450980 0.592157
0.831373 0.431373 0.623529
0.831373 0.431373 0.623529
0.831373 0.431373 0.623529
0.831373 0.431373 0.623529
0.831373 0.431373 0.623529
0.803922 0.392157 0.584314
0.803922 0.392157 0.584314
0.890196 0.450980 0.592157
0.890196 0.450980 0.592157
0.831373 0.431373 0.623529
0.831373 0.435294 0.615686
0.831373 0.447059 0.623529
0.835294 0.784314 0.835294
0.835294 0.835294 0.874510
0.839216 0.701961 0.776471
0.890196 0.478431 0.611765
0.890196 0.450980 0.592157
0.890196 0.450980 0.592157
0.835294 0.835294 0.874510
0.835294 0.835294 0.874510
0.835294 0.835294 0.874510
0.839216 0.839216 0.878431
0.839216 0.839216 0.878431
0.839216 0.839216 0.878431
0.882353 0.701961 0.756863
0.909804 0.760784 0.768627
0.909804 0.768627 0.776471
0.721569 0.784314 0.921569
0.725490 0.788235 0.925490
0.717647 0.792157 0.949020
0.709804 0.796078 0.968627
0.705882 0.800000 0.976471
0.705882 0.800000 0.976471
0.909804 0.768627 0.784314
0.909804 0.768627 0.776471
0.945098 0.850980 0.843137
0.639216 0.839216 0.913725
0.639216 0.839216 0.913725
0.643137 0.843137 0.921569
0.654902 0.847059 0.925490
0.701961 0.847059 0.933333
0.729412 0.839216 0.933333
0.835294 0.850980 0.894118
0.945098 0.850980 0.843137
0.945098 0.850980 0.843137
0.600000 0.894118 0.952941
0.600000 0.894118 0.952941
0.600000 0.894118 0.952941
0.611765 0.890196 0.952941
0.666667 0.886275 0.952941
0.729412 0.890196 0.949020
0.811765 0.905882 0.941176
0.882353 0.913725 0.921569
0.925490 0.921569 0.905882
0.694118 0.941176 0.968627
0.694118 0.941176 0.968627
0.694118 0.941176 0.968627
0.694118 0.941176 0.968627
0.694118 0.941176 0.968627
0.800000 0.941176 0.933333
0.854902 0.937255 0.917647
0.921569 0.952941 0.945098
0.956863 0.960784 0.952941
